; generated by Slic3r 1.2.9 on 2018-12-13 at 16:13:50

; external perimeters extrusion width = 0.30mm
; perimeters extrusion width = 0.40mm
; infill extrusion width = 0.40mm
; solid infill extrusion width = 0.40mm
; top infill extrusion width = 0.40mm

M107
M190 S65 ; set bed temperature
M104 S205 ; set temperature
G28 ; home all axes
G1 Z5 F5000 ; lift nozzle

M109 S205 ; wait for temperature to be reached
G21 ; set units to millimeters
G90 ; use absolute coordinates
M82 ; use absolute distances for extrusion
G92 E0
G1 Z0.300 F7800.000
G1 E-2.00000 F2400.00000
G92 E0
G1 X73.260 Y73.260 F7800.000
G1 E2.00000 F2400.00000
G1 X73.783 Y72.738 E2.04934 F1800.000
G1 X75.419 Y71.395 E2.19078
G1 X76.648 Y70.574 E2.28947
G1 X78.515 Y69.576 E2.43091
G1 X79.880 Y69.011 E2.52960
G1 X81.906 Y68.396 E2.67103
G1 X83.354 Y68.108 E2.76972
G1 X85.461 Y67.901 E2.91116
G1 X86.200 Y67.864 E2.96056
G1 X113.800 Y67.864 E4.80439
G1 X114.539 Y67.901 E4.85380
G1 X116.646 Y68.108 E4.99524 F1800.000
G1 X118.094 Y68.396 E5.09392
G1 X120.120 Y69.011 E5.23536
G1 X121.485 Y69.576 E5.33405
G1 X123.352 Y70.574 E5.47549
G1 X124.581 Y71.395 E5.57418
G1 X126.217 Y72.738 E5.71561
G1 X127.262 Y73.783 E5.81430
G1 X128.605 Y75.419 E5.95574
G1 X129.426 Y76.648 E6.05443
G1 X130.424 Y78.515 E6.19587
G1 X130.989 Y79.880 E6.29455
G1 X131.604 Y81.906 E6.43599
G1 X131.892 Y83.354 E6.53468
G1 X132.099 Y85.461 E6.67612
G1 X132.136 Y86.200 E6.72552
G1 X132.136 Y113.800 E8.56935
G1 X132.099 Y114.539 E8.61875
G1 X131.892 Y116.646 E8.76019
G1 X131.604 Y118.094 E8.85888
G1 X130.989 Y120.120 E9.00032
G1 X130.424 Y121.485 E9.09901
G1 X129.426 Y123.352 E9.24044
G1 X128.605 Y124.581 E9.33913
G1 X127.262 Y126.217 E9.48057
G1 X126.217 Y127.262 E9.57926
G1 X124.581 Y128.605 E9.72070
G1 X123.352 Y129.426 E9.81938
G1 X121.485 Y130.424 E9.96082
G1 X120.120 Y130.989 E10.05951
G1 X119.817 Y131.081 E10.08072
G1 X118.094 Y131.604 E10.20095
G1 X116.646 Y131.892 E10.29964
G1 X114.539 Y132.099 E10.44107
G1 X113.800 Y132.136 E10.49048
G1 X86.200 Y132.136 E12.33431
G1 X85.461 Y132.099 E12.38371
G1 X83.354 Y131.892 E12.52515
G1 X81.906 Y131.604 E12.62384
G1 X79.880 Y130.989 E12.76527
G1 X78.515 Y130.424 E12.86396
G1 X76.648 Y129.426 E13.00540
G1 X75.419 Y128.605 E13.10409
G1 X73.783 Y127.262 E13.24553
G1 X72.738 Y126.217 E13.34421
G1 X71.395 Y124.581 E13.48565
G1 X70.574 Y123.352 E13.58434
G1 X69.576 Y121.485 E13.72578
G1 X69.011 Y120.120 E13.82447
G1 X68.396 Y118.094 E13.96591
G1 X68.108 Y116.646 E14.06459
G1 X67.901 Y114.539 E14.20603
G1 X67.864 Y113.800 E14.25543
G1 X67.864 Y86.200 E16.09926
G1 X67.901 Y85.461 E16.14867
G1 X68.108 Y83.354 E16.29011
G1 X68.396 Y81.906 E16.38879
G1 X69.011 Y79.880 E16.53023
G1 X69.576 Y78.515 E16.62892
G1 X70.574 Y76.648 E16.77036
G1 X71.395 Y75.419 E16.86905
G1 X72.738 Y73.783 E17.01048
G1 X73.229 Y73.292 E17.05682
G1 X74.208 Y74.208 F7800.000
G1 X74.422 Y73.994 E17.07704 F1800.000
G1 X76.526 Y72.267 E17.25891
G1 X77.029 Y71.930 E17.29934
G1 X79.430 Y70.647 E17.48121
G1 X79.989 Y70.416 E17.52164
G1 X82.595 Y69.625 E17.70351
G1 X83.188 Y69.507 E17.74394
G1 X85.897 Y69.240 E17.92581
G1 X86.503 Y69.240 E17.96624
G1 X87.120 Y69.301 E18.00767
G1 X89.212 Y69.507 E18.14811 F1800.000
G1 X89.805 Y69.625 E18.18854
G1 X92.411 Y70.416 E18.37041
G1 X92.970 Y70.647 E18.41084
G1 X95.371 Y71.930 E18.59271
G1 X95.874 Y72.267 E18.63314
G1 X97.978 Y73.994 E18.81501
G1 X98.406 Y74.422 E18.85544
G1 X99.747 Y76.055 E18.99660
G1 X100.253 Y76.055 E19.03044
G1 X101.594 Y74.422 E19.17160
G1 X102.022 Y73.994 E19.21203
G1 X104.126 Y72.267 E19.39390
G1 X104.629 Y71.930 E19.43433
G1 X105.176 Y71.638 E19.47576
G1 X107.030 Y70.647 E19.61620
G1 X107.589 Y70.416 E19.65663
G1 X110.195 Y69.625 E19.83850
G1 X110.788 Y69.507 E19.87893
G1 X111.405 Y69.446 E19.92036
G1 X113.497 Y69.240 E20.06080
G1 X114.103 Y69.240 E20.10123
G1 X116.812 Y69.507 E20.28310
G1 X117.405 Y69.625 E20.32353
G1 X120.011 Y70.416 E20.50540
G1 X120.570 Y70.647 E20.54583
G1 X122.971 Y71.930 E20.72770
G1 X123.474 Y72.267 E20.76814
G1 X125.578 Y73.994 E20.95000
G1 X126.006 Y74.422 E20.99044
G1 X127.733 Y76.526 E21.17230
G1 X128.070 Y77.029 E21.21274
G1 X129.353 Y79.430 E21.39460
G1 X129.584 Y79.989 E21.43504
G1 X130.375 Y82.595 E21.61691
G1 X130.493 Y83.188 E21.65734
G1 X130.760 Y85.897 E21.83921
G1 X130.760 Y86.503 E21.87964
G1 X130.493 Y89.212 E22.06151
G1 X130.375 Y89.805 E22.10194
G1 X129.584 Y92.411 E22.28381
G1 X129.353 Y92.970 E22.32424
G1 X128.070 Y95.371 E22.50611
G1 X127.733 Y95.874 E22.54654
G1 X126.006 Y97.978 E22.72841
G1 X125.578 Y98.406 E22.76884
G1 X123.945 Y99.747 E22.90999
G1 X123.945 Y100.253 E22.94384
G1 X125.578 Y101.594 E23.08500
G1 X126.006 Y102.022 E23.12543
G1 X127.733 Y104.126 E23.30730
G1 X128.070 Y104.629 E23.34773
G1 X129.353 Y107.030 E23.52960
G1 X129.584 Y107.589 E23.57003
G1 X130.375 Y110.195 E23.75190
G1 X130.493 Y110.788 E23.79233
G1 X130.760 Y113.497 E23.97420
G1 X130.760 Y114.103 E24.01463
G1 X130.493 Y116.812 E24.19650
G1 X130.375 Y117.405 E24.23693
G1 X129.584 Y120.011 E24.41880
G1 X129.353 Y120.570 E24.45923
G1 X128.070 Y122.971 E24.64110
G1 X127.733 Y123.474 E24.68153
G1 X126.006 Y125.578 E24.86340
G1 X125.578 Y126.006 E24.90383
G1 X123.474 Y127.733 E25.08570
G1 X122.971 Y128.070 E25.12613
G1 X120.570 Y129.353 E25.30800
G1 X120.011 Y129.584 E25.34843
G1 X117.405 Y130.375 E25.53030
G1 X116.812 Y130.493 E25.57073
G1 X114.103 Y130.760 E25.75260
G1 X113.497 Y130.760 E25.79303
G1 X110.788 Y130.493 E25.97490
G1 X110.195 Y130.375 E26.01533
G1 X107.589 Y129.584 E26.19720
G1 X107.030 Y129.353 E26.23764
G1 X104.629 Y128.070 E26.41950
G1 X104.126 Y127.733 E26.45994
G1 X102.022 Y126.006 E26.64180
G1 X101.594 Y125.578 E26.68224
G1 X100.253 Y123.945 E26.82339
G1 X99.747 Y123.945 E26.85724
G1 X98.406 Y125.578 E26.99840
G1 X97.978 Y126.006 E27.03883
G1 X95.874 Y127.733 E27.22070
G1 X95.371 Y128.070 E27.26113
G1 X92.970 Y129.353 E27.44300
G1 X92.411 Y129.584 E27.48343
G1 X89.805 Y130.375 E27.66530
G1 X89.212 Y130.493 E27.70573
G1 X86.503 Y130.760 E27.88760
G1 X85.897 Y130.760 E27.92803
G1 X83.188 Y130.493 E28.10990
G1 X82.595 Y130.375 E28.15033
G1 X79.989 Y129.584 E28.33220
G1 X79.430 Y129.353 E28.37263
G1 X77.029 Y128.070 E28.55450
G1 X76.526 Y127.733 E28.59493
G1 X74.422 Y126.006 E28.77680
G1 X73.994 Y125.578 E28.81723
G1 X72.267 Y123.474 E28.99910
G1 X71.930 Y122.971 E29.03953
G1 X70.647 Y120.570 E29.22140
G1 X70.416 Y120.011 E29.26183
G1 X69.625 Y117.405 E29.44370
G1 X69.507 Y116.812 E29.48413
G1 X69.240 Y114.103 E29.66600
G1 X69.240 Y113.497 E29.70643
G1 X69.507 Y110.788 E29.88830
G1 X69.625 Y110.195 E29.92873
G1 X70.416 Y107.589 E30.11060
G1 X70.647 Y107.030 E30.15103
G1 X71.930 Y104.629 E30.33290
G1 X72.267 Y104.126 E30.37333
G1 X73.994 Y102.022 E30.55520
G1 X74.422 Y101.594 E30.59563
G1 X76.055 Y100.253 E30.73679
G1 X76.055 Y99.747 E30.77064
G1 X74.422 Y98.406 E30.91179
G1 X73.994 Y97.978 E30.95222
G1 X72.267 Y95.874 E31.13409
G1 X71.930 Y95.371 E31.17453
G1 X70.647 Y92.970 E31.35639
G1 X70.416 Y92.411 E31.39683
G1 X69.625 Y89.805 E31.57870
G1 X69.507 Y89.212 E31.61913
G1 X69.240 Y86.503 E31.80100
G1 X69.240 Y85.897 E31.84143
G1 X69.507 Y83.188 E32.02330
G1 X69.625 Y82.595 E32.06373
G1 X70.416 Y79.989 E32.24560
G1 X70.647 Y79.430 E32.28603
G1 X71.930 Y77.029 E32.46790
G1 X72.267 Y76.526 E32.50833
G1 X73.994 Y74.422 E32.69020
G1 X74.176 Y74.240 E32.70741
G1 X74.586 Y74.586 F7800.000
G1 X74.782 Y74.391 E32.72586 F1800.000
G1 X76.846 Y72.697 E32.90422
G1 X77.305 Y72.390 E32.94113
G1 X79.660 Y71.132 E33.11949
G1 X80.170 Y70.920 E33.15640
G1 X82.725 Y70.145 E33.33476
G1 X83.267 Y70.038 E33.37167
G1 X85.924 Y69.776 E33.55002
G1 X86.476 Y69.776 E33.58694
G1 X89.133 Y70.038 E33.76529 F1800.000
G1 X89.675 Y70.145 E33.80221
G1 X90.243 Y70.318 E33.84188
G1 X92.230 Y70.920 E33.98056
G1 X92.740 Y71.132 E34.01748
G1 X95.095 Y72.390 E34.19583
G1 X95.554 Y72.697 E34.23275
G1 X97.618 Y74.391 E34.41110
G1 X98.009 Y74.782 E34.44802
G1 X99.747 Y76.899 E34.63101
G1 X100.253 Y76.899 E34.66486
G1 X101.991 Y74.782 E34.84786
G1 X102.382 Y74.391 E34.88478
G1 X104.446 Y72.697 E35.06313
G1 X104.905 Y72.390 E35.10005
G1 X105.429 Y72.111 E35.13972
G1 X107.260 Y71.132 E35.27840
G1 X107.770 Y70.920 E35.31532
G1 X110.325 Y70.145 E35.49367
G1 X110.867 Y70.038 E35.53058
G1 X111.458 Y69.979 E35.57026
G1 X113.524 Y69.776 E35.70894
G1 X114.076 Y69.776 E35.74585
G1 X116.733 Y70.038 E35.92421
G1 X117.275 Y70.145 E35.96112
G1 X119.830 Y70.920 E36.13948
G1 X120.340 Y71.132 E36.17639
G1 X122.695 Y72.390 E36.35474
G1 X123.154 Y72.697 E36.39166
G1 X125.218 Y74.391 E36.57001
G1 X125.609 Y74.782 E36.60693
G1 X127.303 Y76.846 E36.78528
G1 X127.610 Y77.305 E36.82220
G1 X128.868 Y79.660 E37.00055
G1 X129.080 Y80.170 E37.03747
G1 X129.855 Y82.725 E37.21582
G1 X129.962 Y83.267 E37.25274
G1 X130.224 Y85.924 E37.43109
G1 X130.224 Y86.476 E37.46800
G1 X129.962 Y89.133 E37.64636
G1 X129.855 Y89.675 E37.68327
G1 X129.080 Y92.230 E37.86163
G1 X128.868 Y92.740 E37.89854
G1 X127.610 Y95.095 E38.07690
G1 X127.303 Y95.554 E38.11381
G1 X125.609 Y97.618 E38.29216
G1 X125.218 Y98.009 E38.32908
G1 X123.101 Y99.747 E38.51208
G1 X123.101 Y100.253 E38.54593
G1 X125.218 Y101.991 E38.72893
G1 X125.609 Y102.382 E38.76584
G1 X127.303 Y104.446 E38.94419
G1 X127.610 Y104.905 E38.98111
G1 X128.868 Y107.260 E39.15946
G1 X129.080 Y107.770 E39.19638
G1 X129.855 Y110.325 E39.37473
G1 X129.962 Y110.867 E39.41165
G1 X130.224 Y113.524 E39.59000
G1 X130.224 Y114.076 E39.62692
G1 X129.962 Y116.733 E39.80527
G1 X129.855 Y117.275 E39.84219
G1 X129.080 Y119.830 E40.02054
G1 X128.868 Y120.340 E40.05745
G1 X127.610 Y122.695 E40.23581
G1 X127.303 Y123.154 E40.27272
G1 X125.609 Y125.218 E40.45108
G1 X125.218 Y125.609 E40.48799
G1 X123.154 Y127.303 E40.66635
G1 X122.695 Y127.610 E40.70326
G1 X120.340 Y128.868 E40.88161
G1 X119.830 Y129.080 E40.91853
G1 X117.275 Y129.855 E41.09688
G1 X116.733 Y129.962 E41.13380
G1 X114.076 Y130.224 E41.31215
G1 X113.524 Y130.224 E41.34907
G1 X110.867 Y129.962 E41.52742
G1 X110.325 Y129.855 E41.56434
G1 X107.770 Y129.080 E41.74269
G1 X107.260 Y128.868 E41.77961
G1 X104.905 Y127.610 E41.95796
G1 X104.446 Y127.303 E41.99488
G1 X102.382 Y125.609 E42.17323
G1 X101.991 Y125.218 E42.21014
G1 X100.253 Y123.101 E42.39314
G1 X99.747 Y123.101 E42.42699
G1 X98.009 Y125.218 E42.60999
G1 X97.618 Y125.609 E42.64690
G1 X95.554 Y127.303 E42.82526
G1 X95.095 Y127.610 E42.86217
G1 X92.740 Y128.868 E43.04053
G1 X92.230 Y129.080 E43.07744
G1 X89.675 Y129.855 E43.25580
G1 X89.133 Y129.962 E43.29271
G1 X86.476 Y130.224 E43.47107
G1 X85.924 Y130.224 E43.50798
G1 X83.267 Y129.962 E43.68633
G1 X82.725 Y129.855 E43.72325
G1 X80.170 Y129.080 E43.90160
G1 X79.660 Y128.868 E43.93852
G1 X77.305 Y127.610 E44.11687
G1 X76.846 Y127.303 E44.15379
G1 X74.782 Y125.609 E44.33214
G1 X74.391 Y125.218 E44.36906
G1 X72.697 Y123.154 E44.54741
G1 X72.390 Y122.695 E44.58433
G1 X71.132 Y120.340 E44.76268
G1 X70.920 Y119.830 E44.79959
G1 X70.145 Y117.275 E44.97795
G1 X70.038 Y116.733 E45.01486
G1 X69.776 Y114.076 E45.19322
G1 X69.776 Y113.524 E45.23013
G1 X70.038 Y110.867 E45.40849
G1 X70.145 Y110.325 E45.44540
G1 X70.920 Y107.770 E45.62375
G1 X71.132 Y107.260 E45.66067
G1 X72.390 Y104.905 E45.83902
G1 X72.697 Y104.446 E45.87594
G1 X74.391 Y102.382 E46.05429
G1 X74.782 Y101.991 E46.09121
G1 X76.899 Y100.253 E46.27421
G1 X76.899 Y99.747 E46.30805
G1 X74.782 Y98.009 E46.49105
G1 X74.391 Y97.618 E46.52797
G1 X72.697 Y95.554 E46.70632
G1 X72.390 Y95.095 E46.74324
G1 X71.132 Y92.740 E46.92159
G1 X70.920 Y92.230 E46.95851
G1 X70.145 Y89.675 E47.13686
G1 X70.038 Y89.133 E47.17377
G1 X69.979 Y88.542 E47.21345
G1 X69.776 Y86.476 E47.35213
G1 X69.776 Y85.924 E47.38904
G1 X70.038 Y83.267 E47.56740
G1 X70.145 Y82.725 E47.60431
G1 X70.920 Y80.170 E47.78267
G1 X71.132 Y79.660 E47.81958
G1 X72.390 Y77.305 E47.99794
G1 X72.697 Y76.846 E48.03485
G1 X74.391 Y74.782 E48.21321
G1 X74.555 Y74.618 E48.22866
G1 X74.965 Y74.965 F7800.000
G1 X75.142 Y74.788 E48.24536 F1800.000
G1 X77.165 Y73.128 E48.42019
G1 X77.581 Y72.850 E48.45359
G1 X79.889 Y71.617 E48.62843
G1 X80.351 Y71.425 E48.66183
G1 X82.855 Y70.666 E48.83667
G1 X83.345 Y70.568 E48.87007
G1 X85.950 Y70.312 E49.04491
G1 X86.450 Y70.312 E49.07831
G1 X87.015 Y70.367 E49.11622
G1 X89.054 Y70.568 E49.25314 F1800.000
G1 X89.545 Y70.666 E49.28654
G1 X92.049 Y71.425 E49.46138
G1 X92.511 Y71.617 E49.49478
G1 X94.819 Y72.850 E49.66962
G1 X95.235 Y73.128 E49.70302
G1 X97.258 Y74.788 E49.87786
G1 X97.612 Y75.142 E49.91126
G1 X99.272 Y77.165 E50.08609
G1 X99.714 Y77.826 E50.13923
G1 X100.286 Y77.826 E50.17748
G1 X100.728 Y77.165 E50.23062
G1 X102.388 Y75.142 E50.40545
G1 X102.742 Y74.788 E50.43885
G1 X104.765 Y73.128 E50.61369
G1 X105.181 Y72.850 E50.64709
G1 X107.489 Y71.617 E50.82193
G1 X107.951 Y71.425 E50.85533
G1 X110.455 Y70.666 E51.03017
G1 X110.946 Y70.568 E51.06357
G1 X113.550 Y70.312 E51.23840
G1 X114.050 Y70.312 E51.27180
G1 X114.615 Y70.367 E51.30972
G1 X116.654 Y70.568 E51.44664
G1 X117.145 Y70.666 E51.48004
G1 X119.649 Y71.425 E51.65488
G1 X120.111 Y71.617 E51.68828
G1 X120.612 Y71.884 E51.72619
G1 X122.419 Y72.850 E51.86312
G1 X122.835 Y73.128 E51.89652
G1 X124.858 Y74.788 E52.07135
G1 X125.212 Y75.142 E52.10475
G1 X126.872 Y77.165 E52.27959
G1 X127.150 Y77.581 E52.31299
G1 X128.383 Y79.889 E52.48783
G1 X128.575 Y80.351 E52.52123
G1 X129.334 Y82.855 E52.69607
G1 X129.432 Y83.346 E52.72947
G1 X129.688 Y85.950 E52.90430
G1 X129.688 Y86.450 E52.93770
G1 X129.432 Y89.054 E53.11254
G1 X129.334 Y89.545 E53.14594
G1 X128.575 Y92.049 E53.32078
G1 X128.383 Y92.511 E53.35418
G1 X127.150 Y94.819 E53.52902
G1 X126.872 Y95.235 E53.56242
G1 X125.212 Y97.258 E53.73725
G1 X124.858 Y97.612 E53.77065
G1 X122.835 Y99.272 E53.94549
G1 X122.174 Y99.714 E53.99862
G1 X122.174 Y100.286 E54.03688
G1 X122.835 Y100.728 E54.09001
G1 X124.858 Y102.388 E54.26485
G1 X125.212 Y102.742 E54.29825
G1 X126.872 Y104.765 E54.47309
G1 X127.150 Y105.181 E54.50649
G1 X128.383 Y107.489 E54.68132
G1 X128.575 Y107.951 E54.71472
G1 X129.334 Y110.455 E54.88956
G1 X129.432 Y110.946 E54.92296
G1 X129.688 Y113.550 E55.09780
G1 X129.688 Y114.050 E55.13120
G1 X129.432 Y116.655 E55.30604
G1 X129.334 Y117.145 E55.33944
G1 X128.575 Y119.649 E55.51427
G1 X128.383 Y120.111 E55.54767
G1 X127.150 Y122.419 E55.72251
G1 X126.872 Y122.835 E55.75591
G1 X125.212 Y124.858 E55.93075
G1 X124.858 Y125.212 E55.96415
G1 X122.835 Y126.872 E56.13899
G1 X122.419 Y127.150 E56.17239
G1 X120.111 Y128.383 E56.34722
G1 X119.649 Y128.575 E56.38062
G1 X117.145 Y129.334 E56.55546
G1 X116.655 Y129.432 E56.58886
G1 X114.050 Y129.688 E56.76370
G1 X113.550 Y129.688 E56.79710
G1 X110.946 Y129.432 E56.97194
G1 X110.455 Y129.334 E57.00534
G1 X107.951 Y128.575 E57.18017
G1 X107.489 Y128.383 E57.21357
G1 X105.181 Y127.150 E57.38841
G1 X104.765 Y126.872 E57.42181
G1 X102.742 Y125.212 E57.59665
G1 X102.388 Y124.858 E57.63005
G1 X100.728 Y122.835 E57.80489
G1 X100.286 Y122.174 E57.85802
G1 X99.714 Y122.174 E57.89627
G1 X99.272 Y122.835 E57.94941
G1 X97.612 Y124.858 E58.12425
G1 X97.258 Y125.212 E58.15764
G1 X95.235 Y126.872 E58.33248
G1 X94.819 Y127.150 E58.36588
G1 X92.511 Y128.383 E58.54072
G1 X92.049 Y128.575 E58.57412
G1 X89.545 Y129.334 E58.74896
G1 X89.054 Y129.432 E58.78236
G1 X86.450 Y129.688 E58.95720
G1 X85.950 Y129.688 E58.99060
G1 X83.345 Y129.432 E59.16543
G1 X82.855 Y129.334 E59.19883
G1 X80.351 Y128.575 E59.37367
G1 X79.889 Y128.383 E59.40707
G1 X77.581 Y127.150 E59.58191
G1 X77.165 Y126.872 E59.61531
G1 X75.142 Y125.212 E59.79015
G1 X74.788 Y124.858 E59.82354
G1 X73.128 Y122.835 E59.99838
G1 X72.850 Y122.419 E60.03178
G1 X71.617 Y120.111 E60.20662
G1 X71.425 Y119.649 E60.24002
G1 X70.666 Y117.145 E60.41486
G1 X70.568 Y116.655 E60.44826
G1 X70.513 Y116.090 E60.48617
G1 X70.312 Y114.050 E60.62309
G1 X70.312 Y113.550 E60.65649
G1 X70.568 Y110.946 E60.83133
G1 X70.666 Y110.455 E60.86473
G1 X71.425 Y107.951 E61.03957
G1 X71.617 Y107.489 E61.07297
G1 X72.850 Y105.181 E61.24781
G1 X73.128 Y104.765 E61.28121
G1 X74.788 Y102.742 E61.45604
G1 X75.142 Y102.388 E61.48944
G1 X77.165 Y100.728 E61.66428
