; generated by Slic3r 1.2.9 on 2018-12-13 at 13:12:42

; external perimeters extrusion width = 0.30mm
; perimeters extrusion width = 0.40mm
; infill extrusion width = 0.40mm
; solid infill extrusion width = 0.40mm
; top infill extrusion width = 0.40mm

M107
M190 S65 ; set bed temperature
M104 S205 ; set temperature
G28 ; home all axes
G1 Z5 F5000 ; lift nozzle

M109 S205 ; wait for temperature to be reached
G21 ; set units to millimeters
G90 ; use absolute coordinates
M82 ; use absolute distances for extrusion
G92 E0
G1 Z0.300 F7800.000
G1 E-2.00000 F2400.00000
G92 E0
G1 X82.012 Y85.416 F7800.000
G1 E2.00000 F2400.00000
G1 X83.793 Y83.739 E2.16348 F1800.000
G1 X86.019 Y82.720 E2.32696
G1 X87.243 Y82.493 E2.41012
G1 X106.862 Y80.512 E3.72745
G1 X107.806 Y80.476 E3.79055
G1 X108.748 Y80.498 E3.85353 F1800.000
G1 X110.371 Y80.715 E3.96295
G1 X111.437 Y80.998 E4.03658
G1 X112.987 Y81.604 E4.14780
G1 X113.931 Y82.119 E4.21962
G1 X115.317 Y83.092 E4.33272
G1 X116.092 Y83.795 E4.40265
G1 X117.268 Y85.153 E4.52266
G1 X117.796 Y85.934 E4.58563
G1 X118.601 Y87.485 E4.70235
G1 X118.948 Y88.414 E4.76864
G1 X119.368 Y90.139 E4.88724
G1 X119.482 Y91.096 E4.95163
G1 X119.498 Y92.741 E5.06150
G1 X117.498 Y112.741 E6.40427
G1 X116.863 Y115.104 E6.56775
G1 X115.503 Y117.139 E6.73123
G1 X113.564 Y118.631 E6.89472
G1 X111.248 Y119.423 E7.05820
G1 X110.000 Y119.527 E7.14186
G1 X88.000 Y119.527 E8.61158
G1 X85.585 Y119.129 E8.77506
G1 X83.425 Y117.979 E8.93854
G1 X81.748 Y116.197 E9.10203
G1 X80.730 Y113.972 E9.26551
G1 X80.464 Y111.991 E9.39905
G1 X80.464 Y89.991 E10.86877
G1 X80.862 Y87.576 E11.03225
G1 X81.991 Y85.456 E11.19272
G1 X82.938 Y86.342 F7800.000
G1 X85.449 Y83.831 E11.42994 F1800.000
G1 X101.871 Y83.831 E12.52702
G1 X102.046 Y83.768 E12.53949
G1 X102.692 Y83.320 E12.59199
G1 X103.109 Y83.104 E12.62336
G1 X104.291 Y82.529 E12.71121
G1 X104.902 Y82.308 E12.75457
G1 X106.632 Y81.920 E12.87305
G1 X107.289 Y81.850 E12.91716
G1 X107.736 Y81.850 E12.94705
G1 X109.051 Y81.882 E13.03490 F1800.000
G1 X109.716 Y81.971 E13.07975
G1 X111.410 Y82.416 E13.19674
G1 X112.046 Y82.664 E13.24234
G1 X112.422 Y82.862 E13.27075
G1 X113.576 Y83.493 E13.35862
G1 X114.144 Y83.892 E13.40499
G1 X115.427 Y85.051 E13.52046
G1 X115.891 Y85.581 E13.56755
G1 X116.857 Y87.002 E13.68234
G1 X117.187 Y87.638 E13.73020
G1 X117.326 Y88.004 E13.75636
G1 X117.786 Y89.236 E13.84423
G1 X117.958 Y89.944 E13.89287
G1 X118.157 Y91.602 E14.00445
G1 X118.162 Y92.292 E14.05053
G1 X117.991 Y93.862 E14.15608
G1 X117.863 Y94.444 E14.19586
G1 X117.491 Y95.587 E14.27615
G1 X117.325 Y96.035 E14.30811
G1 X117.112 Y96.484 E14.34130
G1 X116.511 Y97.526 E14.42165
G1 X116.208 Y97.981 E14.45817
G1 X116.160 Y98.137 E14.46907
G1 X116.160 Y114.542 E15.56502
G1 X112.551 Y118.151 E15.90592
G1 X85.449 Y118.151 E17.71653
G1 X81.840 Y114.542 E18.05742
G1 X81.840 Y87.440 E19.86804
G1 X82.906 Y86.374 E19.96871
G1 X83.317 Y86.721 F7800.000
G1 X85.670 Y84.367 E20.19110 F1800.000
G1 X102.063 Y84.367 E21.28622
G1 X102.239 Y84.304 E21.29869
G1 X102.480 Y84.104 E21.31963
G1 X102.965 Y83.782 E21.35854
G1 X103.268 Y83.623 E21.38139
G1 X104.500 Y83.023 E21.47291
G1 X105.057 Y82.822 E21.51250
G1 X106.718 Y82.450 E21.62620
G1 X107.318 Y82.385 E21.66648
G1 X107.660 Y82.385 E21.68933
G1 X109.009 Y82.416 E21.77949 F1800.000
G1 X109.617 Y82.498 E21.82044
G1 X111.243 Y82.926 E21.93278
G1 X111.823 Y83.152 E21.97441
G1 X112.167 Y83.333 E22.00039
G1 X113.293 Y83.948 E22.08609
G1 X113.812 Y84.312 E22.12843
G1 X115.044 Y85.426 E22.23939
G1 X115.468 Y85.911 E22.28238
G1 X116.396 Y87.276 E22.39271
G1 X116.697 Y87.857 E22.43641
G1 X116.824 Y88.192 E22.46033
G1 X117.273 Y89.394 E22.54604
G1 X117.430 Y90.040 E22.59044
G1 X117.622 Y91.636 E22.69784
G1 X117.626 Y92.266 E22.73992
G1 X117.462 Y93.772 E22.84115
G1 X117.345 Y94.303 E22.87747
G1 X116.984 Y95.415 E22.95560
G1 X116.832 Y95.825 E22.98482
G1 X116.637 Y96.235 E23.01512
G1 X116.052 Y97.249 E23.09331
G1 X115.683 Y97.785 E23.13679
G1 X115.624 Y97.956 E23.14886
G1 X115.624 Y114.320 E24.24211
G1 X112.330 Y117.615 E24.55336
G1 X85.670 Y117.615 E26.33433
G1 X82.376 Y114.320 E26.64558
G1 X82.376 Y87.661 E28.42656
G1 X83.285 Y86.753 E28.51241
G1 X83.695 Y87.100 F7800.000
G1 X85.892 Y84.903 E28.71998 F1800.000
G1 X102.256 Y84.903 E29.81314
G1 X102.431 Y84.839 E29.82561
G1 X102.800 Y84.535 E29.85755
G1 X103.239 Y84.243 E29.89276
G1 X104.709 Y83.517 E30.00228
G1 X105.213 Y83.335 E30.03809
G1 X106.804 Y82.979 E30.14701
G1 X107.346 Y82.921 E30.18345
G1 X107.717 Y82.921 E30.20822
G1 X108.967 Y82.951 E30.29174 F1800.000
G1 X109.517 Y83.025 E30.32880
G1 X111.075 Y83.435 E30.43648
G1 X111.601 Y83.640 E30.47414
G1 X111.913 Y83.805 E30.49770
G1 X113.010 Y84.404 E30.58123
G1 X113.479 Y84.733 E30.61954
G1 X114.661 Y85.802 E30.72597
G1 X115.044 Y86.240 E30.76487
G1 X115.935 Y87.551 E30.87073
G1 X116.208 Y88.076 E30.91027
G1 X116.323 Y88.380 E30.93196
G1 X116.760 Y89.551 E31.01550
G1 X116.902 Y90.136 E31.05568
G1 X117.086 Y91.670 E31.15890
G1 X117.090 Y92.239 E31.19696
G1 X116.934 Y93.682 E31.29388
G1 X116.828 Y94.162 E31.32674
G1 X116.436 Y95.359 E31.41090
G1 X116.339 Y95.615 E31.42919
G1 X116.163 Y95.986 E31.45661
G1 X115.594 Y96.972 E31.53263
G1 X115.328 Y97.371 E31.56464
G1 X115.148 Y97.599 E31.58409
G1 X115.088 Y97.770 E31.59617
G1 X115.088 Y114.099 E32.68702
G1 X112.108 Y117.079 E32.96863
G1 X85.892 Y117.079 E34.71996
G1 X82.912 Y114.099 E35.00157
G1 X82.912 Y87.883 E36.75290
G1 X83.663 Y87.131 E36.82392
G1 X84.074 Y87.478 F7800.000
G1 X86.114 Y85.438 E37.01668 F1800.000
G1 X102.448 Y85.438 E38.10788
G1 X102.624 Y85.375 E38.12035
G1 X103.120 Y84.966 E38.16330
G1 X103.512 Y84.705 E38.19480
G1 X104.917 Y84.011 E38.29947
G1 X105.368 Y83.848 E38.33152
G1 X106.890 Y83.509 E38.43565
G1 X107.375 Y83.456 E38.46825
G1 X107.653 Y83.456 E38.48685
G1 X108.925 Y83.486 E38.57183 F1800.000
G1 X109.417 Y83.552 E38.60498
G1 X110.908 Y83.945 E38.70801
G1 X111.378 Y84.129 E38.74171
G1 X111.658 Y84.276 E38.76283
G1 X112.727 Y84.859 E38.84420
G1 X113.147 Y85.154 E38.87848
G1 X114.278 Y86.178 E38.98038
G1 X114.621 Y86.570 E39.01519
G1 X115.474 Y87.825 E39.11659
G1 X115.718 Y88.295 E39.15196
G1 X115.821 Y88.568 E39.17142
G1 X116.247 Y89.709 E39.25280
G1 X116.374 Y90.232 E39.28875
G1 X116.551 Y91.704 E39.38778
G1 X116.554 Y92.213 E39.42183
G1 X116.405 Y93.591 E39.51444
G1 X116.310 Y94.021 E39.54384
G1 X115.932 Y95.175 E39.62498
G1 X115.688 Y95.737 E39.66590
G1 X115.037 Y96.850 E39.75203
G1 X114.897 Y97.052 E39.76844
G1 X114.624 Y97.384 E39.79716
G1 X114.553 Y97.569 E39.81042
G1 X114.553 Y113.877 E40.89986
G1 X111.886 Y116.544 E41.15183
G1 X86.114 Y116.544 E42.87351
G1 X83.447 Y113.877 E43.12548
G1 X83.447 Y88.105 E44.84716
G1 X84.042 Y87.510 E44.90337
G1 X84.453 Y87.857 F7800.000
G1 X86.336 Y85.974 E45.08130 F1800.000
G1 X102.641 Y85.974 E46.17054
G1 X102.816 Y85.911 E46.18301
G1 X103.439 Y85.396 E46.23698
G1 X103.786 Y85.166 E46.26477
G1 X105.126 Y84.505 E46.36459
G1 X105.524 Y84.361 E46.39287
G1 X106.976 Y84.038 E46.49221
G1 X107.404 Y83.992 E46.52098
G1 X107.698 Y83.993 E46.54064
G1 X108.883 Y84.021 E46.61983 F1800.000
G1 X109.317 Y84.079 E46.64909
G1 X110.741 Y84.455 E46.74746
G1 X111.155 Y84.617 E46.77719
G1 X111.403 Y84.747 E46.79589
G1 X112.444 Y85.315 E46.87510
G1 X112.814 Y85.575 E46.90534
G1 X113.895 Y86.553 E47.00272
G1 X114.198 Y86.899 E47.03343
G1 X115.013 Y88.100 E47.13037
G1 X115.228 Y88.514 E47.16158
G1 X115.320 Y88.755 E47.17881
G1 X115.734 Y89.866 E47.25802
G1 X115.846 Y90.328 E47.28974
G1 X116.015 Y91.737 E47.38458
G1 X116.019 Y92.187 E47.41463
G1 X115.877 Y93.501 E47.50292
G1 X115.793 Y93.880 E47.52886
G1 X115.429 Y94.992 E47.60698
G1 X115.213 Y95.488 E47.64314
G1 X114.590 Y96.554 E47.72566
G1 X114.306 Y96.936 E47.75745
G1 X114.088 Y97.178 E47.77920
G1 X114.017 Y97.363 E47.79246
G1 X114.017 Y113.655 E48.88081
G1 X111.664 Y116.008 E49.10314
G1 X86.336 Y116.008 E50.79518
G1 X83.983 Y113.655 E51.01750
G1 X83.983 Y88.327 E52.70954
G1 X84.421 Y87.889 E52.75093
G1 X84.831 Y88.236 F7800.000
G1 X86.558 Y86.509 E52.91404 F1800.000
G1 X102.833 Y86.509 E54.00132
G1 X103.009 Y86.446 E54.01379
G1 X103.759 Y85.827 E54.07877
G1 X104.059 Y85.627 E54.10285
G1 X105.335 Y85.000 E54.19782
G1 X105.680 Y84.875 E54.22233
G1 X107.061 Y84.568 E54.31689
G1 X107.432 Y84.528 E54.34182
G1 X107.647 Y84.528 E54.35616
G1 X108.841 Y84.556 E54.43596 F1800.000
G1 X109.217 Y84.606 E54.46131
G1 X110.574 Y84.964 E54.55503
G1 X110.933 Y85.105 E54.58080
G1 X111.148 Y85.218 E54.59706
G1 X112.161 Y85.771 E54.67411
G1 X112.482 Y85.996 E54.70032
G1 X113.512 Y86.929 E54.79318
G1 X113.774 Y87.229 E54.81979
G1 X114.552 Y88.374 E54.91226
G1 X114.739 Y88.733 E54.93931
G1 X114.818 Y88.943 E54.95431
G1 X115.221 Y90.024 E55.03135
G1 X115.319 Y90.424 E55.05885
G1 X115.480 Y91.771 E55.14951
G1 X115.483 Y92.161 E55.17555
G1 X115.348 Y93.411 E55.25952
G1 X115.275 Y93.739 E55.28200
G1 X114.926 Y94.808 E55.35710
G1 X114.739 Y95.239 E55.38850
G1 X114.143 Y96.259 E55.46741
G1 X113.896 Y96.591 E55.49503
G1 X113.553 Y96.973 E55.52936
G1 X113.482 Y97.158 E55.54262
G1 X113.482 Y113.433 E56.62989
G1 X111.442 Y115.472 E56.82257
G1 X86.558 Y115.472 E58.48497
G1 X84.518 Y113.433 E58.67765
G1 X84.518 Y88.549 E60.34004
G1 X84.800 Y88.268 E60.36661
G1 X85.210 Y88.615 F7800.000
G1 X86.780 Y87.045 E60.51490 F1800.000
G1 X103.026 Y87.045 E61.60022
G1 X103.202 Y86.982 E61.61270
G1 X104.079 Y86.258 E61.68868
G1 X104.333 Y86.089 E61.70906
G1 X105.543 Y85.494 E61.79918
G1 X105.835 Y85.388 E61.81992
G1 X107.147 Y85.097 E61.90969
G1 X107.461 Y85.063 E61.93079
G1 X107.679 Y85.064 E61.94534
G1 X108.799 Y85.090 E62.02021 F1800.000
G1 X109.118 Y85.133 E62.04166
G1 X110.406 Y85.474 E62.13072
G1 X110.710 Y85.593 E62.15252
G1 X111.877 Y86.226 E62.24124
G1 X112.149 Y86.417 E62.26342
G1 X113.129 Y87.305 E62.35175
G1 X113.351 Y87.559 E62.37427
G1 X113.463 Y87.720 E62.38740
G1 X114.091 Y88.649 E62.46228
G1 X114.249 Y88.953 E62.48517
G1 X114.708 Y90.181 E62.57281
G1 X114.791 Y90.520 E62.59608
G1 X114.945 Y91.805 E62.68255
G1 X114.947 Y92.135 E62.70459
G1 X114.820 Y93.320 E62.78425
G1 X114.758 Y93.598 E62.80327
G1 X114.366 Y94.775 E62.88612
G1 X114.264 Y94.990 E62.90200
G1 X113.696 Y95.963 E62.97730
G1 X113.487 Y96.245 E63.00074
G1 X113.017 Y96.767 E63.04765
G1 X112.946 Y96.952 E63.06092
G1 X112.946 Y113.211 E64.14710
G1 X111.220 Y114.937 E64.31013
G1 X86.780 Y114.937 E65.94289
G1 X85.054 Y113.211 E66.10593
G1 X85.054 Y88.771 E67.73868
G1 X85.178 Y88.646 E67.75042
G1 X85.590 Y88.993 F7800.000
G1 X87.002 Y87.581 E67.88382 F1800.000
G1 X103.228 Y87.581 E68.96782
G1 X103.411 Y87.511 E68.98094
G1 X104.398 Y86.688 E69.06676
G1 X104.606 Y86.550 E69.08344
G1 X105.752 Y85.988 E69.16871
G1 X106.137 Y85.865 E69.19571
G1 X107.233 Y85.626 E69.27063
G1 X107.641 Y85.599 E69.29793
G1 X108.757 Y85.625 E69.37255 F1800.000
G1 X109.018 Y85.660 E69.39011
G1 X110.239 Y85.984 E69.47451
G1 X110.488 Y86.081 E69.49235
G1 X111.594 Y86.682 E69.57648
G1 X111.816 Y86.838 E69.59462
G1 X112.746 Y87.681 E69.67843
G1 X113.020 Y88.022 E69.70764
G1 X113.630 Y88.923 E69.78036
G1 X113.759 Y89.172 E69.79909
G1 X114.195 Y90.339 E69.88233
G1 X114.263 Y90.616 E69.90136
G1 X114.409 Y91.839 E69.98365
G1 X114.411 Y92.109 E70.00168
G1 X114.291 Y93.230 E70.07703
G1 X114.241 Y93.458 E70.09259
G1 X113.873 Y94.565 E70.17055
G1 X113.789 Y94.741 E70.18354
G1 X113.249 Y95.668 E70.25523
G1 X113.077 Y95.900 E70.27450
G1 X112.481 Y96.561 E70.33399
G1 X112.410 Y96.747 E70.34725
G1 X112.410 Y112.989 E71.43235
G1 X110.998 Y114.401 E71.56574
G1 X87.002 Y114.401 E73.16886
G1 X85.590 Y112.989 E73.30225
G1 X85.590 Y89.038 E74.90236
G1 X86.125 Y89.214 F7800.000
G1 X87.223 Y88.116 E75.00611 F1800.000
G1 X103.461 Y88.116 E76.09083
G1 X103.667 Y88.025 E76.10590
G1 X103.904 Y87.791 E76.12813
G1 X104.718 Y87.119 E76.19867
G1 X104.880 Y87.012 E76.21164
G1 X105.961 Y86.482 E76.29207
G1 X106.262 Y86.386 E76.31318
G1 X107.319 Y86.156 E76.38544
G1 X107.660 Y86.135 E76.40827
G1 X108.715 Y86.160 E76.47881 F1800.000
G1 X108.918 Y86.187 E76.49246
G1 X110.072 Y86.493 E76.57221
G1 X110.265 Y86.569 E76.58609
G1 X111.311 Y87.138 E76.66562
G1 X111.484 Y87.259 E76.67973
G1 X112.363 Y88.056 E76.75902
G1 X112.577 Y88.323 E76.78185
G1 X113.169 Y89.197 E76.85239
G1 X113.269 Y89.391 E76.86696
G1 X113.682 Y90.496 E76.94581
G1 X113.735 Y90.712 E76.96061
G1 X113.874 Y91.873 E77.03872
G1 X113.875 Y92.083 E77.05274
G1 X113.762 Y93.140 E77.12377
G1 X113.723 Y93.317 E77.13587
G1 X113.379 Y94.355 E77.20894
G1 X112.802 Y95.373 E77.28709
G1 X112.668 Y95.554 E77.30218
G1 X111.946 Y96.356 E77.37426
G1 X111.875 Y96.541 E77.38752
G1 X111.875 Y112.767 E78.47153
G1 X110.777 Y113.866 E78.57529
G1 X87.223 Y113.866 E80.14875
G1 X86.125 Y112.767 E80.25251
G1 X86.125 Y89.259 E81.82297
G1 X86.661 Y89.436 F7800.000
G1 X87.445 Y88.652 E81.89708 F1800.000
G1 X103.725 Y88.652 E82.98465
G1 X103.953 Y88.537 E83.00170
G1 X104.068 Y88.380 E83.01469
G1 X104.231 Y88.217 E83.03009
G1 X105.038 Y87.550 E83.10002
G1 X105.230 Y87.433 E83.11508
G1 X106.169 Y86.976 E83.18485
G1 X106.302 Y86.928 E83.19427
G1 X107.405 Y86.685 E83.26969
G1 X107.634 Y86.670 E83.28507
G1 X108.673 Y86.695 E83.35452 F1800.000
G1 X108.818 Y86.714 E83.36427
G1 X109.904 Y87.003 E83.43936
G1 X110.043 Y87.057 E83.44927
G1 X111.028 Y87.593 E83.52421
G1 X111.151 Y87.680 E83.53429
G1 X111.980 Y88.432 E83.60906
G1 X112.134 Y88.624 E83.62550
G1 X112.708 Y89.472 E83.69388
G1 X112.780 Y89.610 E83.70429
G1 X113.169 Y90.654 E83.77874
G1 X113.207 Y90.808 E83.78931
G1 X113.338 Y91.906 E83.86323
G1 X113.340 Y92.056 E83.87325
G1 X113.234 Y93.049 E83.93996
G1 X112.886 Y94.145 E84.01674
G1 X112.312 Y95.141 E84.09355
G1 X111.634 Y95.901 E84.16161
G1 X111.448 Y96.059 E84.17788
G1 X111.339 Y96.282 E84.19447
G1 X111.339 Y112.546 E85.28097
G1 X110.555 Y113.330 E85.35507
G1 X87.445 Y113.330 E86.89890
G1 X86.661 Y112.546 E86.97301
G1 X86.661 Y89.481 E88.51383
G1 X87.197 Y89.658 F7800.000
G1 X87.667 Y89.188 E88.55829 F1800.000
G1 X103.992 Y89.188 E89.64889
G1 X104.219 Y89.074 E89.66580
G1 X104.540 Y88.658 E89.70092
G1 X105.426 Y87.934 E89.77738
G1 X106.458 Y87.441 E89.85373
G1 X107.490 Y87.215 E89.92436
G1 X107.641 Y87.206 E89.93442
G1 X108.718 Y87.241 E90.00646 F1800.000
G1 X109.820 Y87.545 E90.08281
G1 X110.819 Y88.101 E90.15917
G1 X111.597 Y88.808 E90.22941
G1 X112.290 Y89.829 E90.31185
G1 X112.679 Y90.904 E90.38821
G1 X112.803 Y91.940 E90.45794
G1 X112.705 Y92.959 E90.52632
G1 X112.365 Y93.993 E90.59905
G1 X111.881 Y94.822 E90.66319
G1 X111.252 Y95.525 E90.72621
G1 X110.920 Y95.780 E90.75413
G1 X110.803 Y96.009 E90.77131
G1 X110.803 Y112.324 E91.86124
G1 X110.333 Y112.794 E91.90571
G1 X87.667 Y112.794 E93.41989
G1 X87.197 Y112.324 E93.46436
G1 X87.197 Y89.703 E94.97553
G1 X87.732 Y89.880 F7800.000
G1 X87.889 Y89.723 E94.99035 F1800.000
G1 X104.260 Y89.723 E96.08404
G1 X104.487 Y89.610 E96.10095
G1 X104.916 Y89.040 E96.14860
G1 X105.700 Y88.396 E96.21639
G1 X106.613 Y87.955 E96.28415
G1 X107.628 Y87.741 E96.35342
G1 X108.619 Y87.768 E96.41963 F1800.000
G1 X109.597 Y88.033 E96.48738
G1 X110.486 Y88.522 E96.55513
G1 X111.214 Y89.183 E96.62085
G1 X111.808 Y90.070 E96.69215
G1 X112.151 Y91.000 E96.75835
G1 X112.268 Y91.974 E96.82390
G1 X112.177 Y92.869 E96.88398
G1 X111.891 Y93.744 E96.94551
G1 X111.439 Y94.517 E97.00531
G1 X110.870 Y95.149 E97.06213
G1 X110.385 Y95.507 E97.10240
G1 X110.268 Y95.736 E97.11958
G1 X110.268 Y112.102 E98.21292
G1 X110.111 Y112.259 E98.22775
G1 X87.889 Y112.259 E99.71229
G1 X87.732 Y112.102 E99.72711
G1 X87.732 Y89.925 E101.20864
G1 E99.20864 F2400.00000
G92 E0
G1 X109.700 Y111.691 F7800.000
G1 E2.00000 F2400.00000
G1 X88.300 Y111.691 E3.42964 F1800.000
G1 X88.300 Y90.291 E4.85927
G1 X104.686 Y90.291 E5.95395
G1 X105.323 Y89.440 E6.02495
G1 X106.006 Y88.877 E6.08408
G1 X106.790 Y88.497 E6.14228
G1 X107.648 Y88.310 E6.20094
G1 X108.525 Y88.331 E6.25959
G1 X109.380 Y88.561 E6.31872
G1 X110.145 Y88.979 E6.37692
G1 X110.794 Y89.569 E6.43557
G1 X111.289 Y90.303 E6.49470
G1 X111.594 Y91.119 E6.55290
G1 X111.698 Y91.993 E6.61170
G1 X111.617 Y92.761 E6.66327
G1 X111.378 Y93.497 E6.71498
