; generated by Slic3r 1.2.9 on 2018-12-13 at 14:40:01

; external perimeters extrusion width = 0.30mm
; perimeters extrusion width = 0.40mm
; infill extrusion width = 0.40mm
; solid infill extrusion width = 0.40mm
; top infill extrusion width = 0.40mm

M107
M190 S65 ; set bed temperature
M104 S205 ; set temperature
G28 ; home all axes
G1 Z5 F5000 ; lift nozzle

M109 S205 ; wait for temperature to be reached
G21 ; set units to millimeters
G90 ; use absolute coordinates
M82 ; use absolute distances for extrusion
G92 E0
G1 Z0.300 F7800.000
G1 E-2.00000 F2400.00000
G92 E0
G1 X86.218 Y86.219 F7800.000
G1 E2.00000 F2400.00000
G1 X86.958 Y85.479 E2.06987 F1800.000
G1 X87.964 Y84.635 E2.15762
G1 X89.678 Y83.435 E2.29737
G1 X90.815 Y82.778 E2.38512
G1 X92.711 Y81.894 E2.52487
G1 X93.945 Y81.445 E2.61261
G1 X95.966 Y80.903 E2.75236
G1 X97.259 Y80.675 E2.84010
G1 X99.308 Y80.496 E2.97751
G1 X100.657 Y80.493 E3.06758
G1 X102.741 Y80.675 E3.20734 F1800.000
G1 X104.034 Y80.903 E3.29507
G1 X106.055 Y81.445 E3.43483
G1 X107.289 Y81.894 E3.52256
G1 X109.185 Y82.778 E3.66230
G1 X110.322 Y83.435 E3.75005
G1 X112.036 Y84.635 E3.88980
G1 X113.042 Y85.479 E3.97755
G1 X114.521 Y86.958 E4.11729
G1 X115.365 Y87.964 E4.20504
G1 X116.565 Y89.678 E4.34478
G1 X117.222 Y90.815 E4.43253
G1 X118.106 Y92.711 E4.57227
G1 X118.555 Y93.945 E4.66002
G1 X119.097 Y95.966 E4.79976
G1 X119.325 Y97.259 E4.88751
G1 X119.507 Y99.343 E5.02725
G1 X119.507 Y100.657 E5.11500
G1 X119.325 Y102.741 E5.25474
G1 X119.097 Y104.034 E5.34249
G1 X118.555 Y106.055 E5.48223
G1 X118.106 Y107.289 E5.56999
G1 X117.222 Y109.185 E5.70973
G1 X116.565 Y110.322 E5.79747
G1 X115.365 Y112.036 E5.93722
G1 X114.521 Y113.042 E6.02497
G1 X113.042 Y114.521 E6.16471
G1 X112.036 Y115.365 E6.25246
G1 X110.322 Y116.565 E6.39220
G1 X109.185 Y117.222 E6.47995
G1 X107.289 Y118.106 E6.61969
G1 X106.055 Y118.555 E6.70744
G1 X104.034 Y119.097 E6.84718
G1 X102.741 Y119.325 E6.93493
G1 X100.657 Y119.507 E7.07467
G1 X99.343 Y119.507 E7.16243
G1 X97.259 Y119.325 E7.30216
G1 X95.966 Y119.097 E7.38992
G1 X93.945 Y118.555 E7.52966
G1 X92.711 Y118.106 E7.61741
G1 X90.815 Y117.222 E7.75715
G1 X89.678 Y116.565 E7.84490
G1 X87.964 Y115.365 E7.98464
G1 X86.958 Y114.521 E8.07239
G1 X85.479 Y113.042 E8.21214
G1 X84.635 Y112.036 E8.29988
G1 X83.435 Y110.322 E8.43963
G1 X82.778 Y109.185 E8.52737
G1 X81.894 Y107.289 E8.66713
G1 X81.445 Y106.055 E8.75486
G1 X80.903 Y104.034 E8.89461
G1 X80.675 Y102.741 E8.98234
G1 X80.493 Y100.657 E9.12210
G1 X80.493 Y99.343 E9.20985
G1 X80.675 Y97.259 E9.34961
G1 X80.903 Y95.966 E9.43734
G1 X81.445 Y93.945 E9.57709
G1 X81.894 Y92.711 E9.66483
G1 X82.778 Y90.815 E9.80457
G1 X83.435 Y89.678 E9.89232
G1 X84.635 Y87.964 E10.03206
G1 X85.479 Y86.958 E10.11981
G1 X86.187 Y86.250 E10.18667
G1 X87.191 Y87.192 F7800.000
G1 X88.121 Y86.262 E10.27451 F1800.000
G1 X88.533 Y85.916 E10.31044
G1 X90.687 Y84.408 E10.48612
G1 X91.153 Y84.139 E10.52205
G1 X93.536 Y83.027 E10.69773
G1 X94.042 Y82.844 E10.73366
G1 X96.582 Y82.163 E10.90933
G1 X97.111 Y82.070 E10.94526
G1 X99.428 Y81.867 E11.10064
G1 X99.731 Y81.840 E11.12094
G1 X100.269 Y81.840 E11.15687
G1 X102.889 Y82.070 E11.33255 F1800.000
G1 X103.418 Y82.163 E11.36847
G1 X105.958 Y82.844 E11.54415
G1 X106.464 Y83.028 E11.58008
G1 X108.847 Y84.139 E11.75574
G1 X109.313 Y84.408 E11.79168
G1 X111.467 Y85.916 E11.96735
G1 X111.879 Y86.262 E12.00328
G1 X113.738 Y88.121 E12.17895
G1 X114.084 Y88.533 E12.21489
G1 X115.592 Y90.687 E12.39056
G1 X115.861 Y91.153 E12.42649
G1 X116.972 Y93.536 E12.60216
G1 X117.156 Y94.042 E12.63809
G1 X117.837 Y96.582 E12.81376
G1 X117.930 Y97.111 E12.84970
G1 X118.160 Y99.731 E13.02537
G1 X118.160 Y100.269 E13.06131
G1 X117.930 Y102.889 E13.23698
G1 X117.837 Y103.418 E13.27292
G1 X117.156 Y105.958 E13.44858
G1 X116.972 Y106.464 E13.48452
G1 X115.861 Y108.847 E13.66018
G1 X115.592 Y109.313 E13.69611
G1 X114.084 Y111.467 E13.87179
G1 X113.738 Y111.879 E13.90772
G1 X111.879 Y113.738 E14.08340
G1 X111.467 Y114.084 E14.11933
G1 X109.313 Y115.592 E14.29500
G1 X108.847 Y115.861 E14.33093
G1 X106.464 Y116.972 E14.50660
G1 X105.958 Y117.156 E14.54253
G1 X103.418 Y117.837 E14.71821
G1 X102.888 Y117.930 E14.75415
G1 X100.269 Y118.160 E14.92981
G1 X99.731 Y118.160 E14.96575
G1 X97.111 Y117.930 E15.14142
G1 X96.582 Y117.837 E15.17736
G1 X94.042 Y117.156 E15.35302
G1 X93.536 Y116.972 E15.38895
G1 X91.153 Y115.861 E15.56463
G1 X90.687 Y115.592 E15.60056
G1 X88.533 Y114.084 E15.77622
G1 X88.121 Y113.738 E15.81216
G1 X86.262 Y111.879 E15.98784
G1 X85.916 Y111.467 E16.02377
G1 X84.408 Y109.313 E16.19945
G1 X84.139 Y108.847 E16.23537
G1 X83.027 Y106.464 E16.41105
G1 X82.844 Y105.958 E16.44698
G1 X82.163 Y103.418 E16.62265
G1 X82.070 Y102.889 E16.65857
G1 X81.840 Y100.269 E16.83425
G1 X81.840 Y99.731 E16.87019
G1 X82.070 Y97.111 E17.04587
G1 X82.163 Y96.582 E17.08180
G1 X82.844 Y94.042 E17.25747
G1 X83.028 Y93.536 E17.29340
G1 X84.139 Y91.153 E17.46906
G1 X84.408 Y90.687 E17.50500
G1 X85.916 Y88.533 E17.68067
G1 X86.262 Y88.121 E17.71660
G1 X87.160 Y87.223 E17.80143
G1 X87.570 Y87.570 F7800.000
G1 X88.483 Y86.657 E17.88771 F1800.000
G1 X88.860 Y86.341 E17.92052
G1 X90.975 Y84.860 E18.09307
G1 X91.401 Y84.614 E18.12587
G1 X93.742 Y83.523 E18.29843
G1 X94.203 Y83.355 E18.33123
G1 X96.698 Y82.686 E18.50378
G1 X97.181 Y82.601 E18.53658
G1 X99.755 Y82.376 E18.70914
G1 X100.246 Y82.376 E18.74194 F1800.000
G1 X102.819 Y82.601 E18.91450
G1 X103.302 Y82.686 E18.94730
G1 X105.797 Y83.355 E19.11985
G1 X106.259 Y83.523 E19.15265
G1 X108.599 Y84.614 E19.32520
G1 X109.025 Y84.860 E19.35800
G1 X111.140 Y86.341 E19.53055
G1 X111.517 Y86.657 E19.56336
G1 X113.343 Y88.483 E19.73590
G1 X113.659 Y88.860 E19.76872
G1 X115.140 Y90.975 E19.94126
G1 X115.386 Y91.401 E19.97407
G1 X116.477 Y93.741 E20.14661
G1 X116.645 Y94.203 E20.17943
G1 X117.314 Y96.698 E20.35197
G1 X117.399 Y97.181 E20.38478
G1 X117.624 Y99.754 E20.55733
G1 X117.624 Y100.246 E20.59014
G1 X117.399 Y102.819 E20.76269
G1 X117.314 Y103.302 E20.79550
G1 X116.645 Y105.797 E20.96804
G1 X116.477 Y106.259 E21.00086
G1 X115.386 Y108.599 E21.17339
G1 X115.140 Y109.025 E21.20620
G1 X113.659 Y111.140 E21.37875
G1 X113.343 Y111.517 E21.41156
G1 X111.517 Y113.343 E21.58411
G1 X111.140 Y113.659 E21.61692
G1 X109.025 Y115.140 E21.78946
G1 X108.599 Y115.386 E21.82227
G1 X106.259 Y116.477 E21.99481
G1 X105.797 Y116.645 E22.02762
G1 X103.302 Y117.314 E22.20017
G1 X102.818 Y117.399 E22.23299
G1 X100.246 Y117.624 E22.40553
G1 X99.754 Y117.624 E22.43834
G1 X97.181 Y117.399 E22.61088
G1 X96.698 Y117.314 E22.64370
G1 X94.203 Y116.645 E22.81624
G1 X93.741 Y116.477 E22.84905
G1 X91.401 Y115.386 E23.02160
G1 X90.975 Y115.140 E23.05440
G1 X88.860 Y113.659 E23.22694
G1 X88.483 Y113.343 E23.25975
G1 X86.657 Y111.517 E23.43231
G1 X86.341 Y111.140 E23.46512
G1 X84.860 Y109.025 E23.63767
G1 X84.614 Y108.599 E23.67047
G1 X83.523 Y106.258 E23.84302
G1 X83.355 Y105.797 E23.87583
G1 X82.686 Y103.302 E24.04837
G1 X82.601 Y102.819 E24.08117
G1 X82.376 Y100.246 E24.25373
G1 X82.376 Y99.754 E24.28654
G1 X82.601 Y97.181 E24.45909
G1 X82.686 Y96.698 E24.49189
G1 X83.355 Y94.203 E24.66445
G1 X83.523 Y93.741 E24.69725
G1 X84.614 Y91.401 E24.86979
G1 X84.860 Y90.975 E24.90260
G1 X86.341 Y88.860 E25.07515
G1 X86.657 Y88.483 E25.10796
G1 X87.538 Y87.602 E25.19122
G1 X87.949 Y87.949 F7800.000
G1 X88.846 Y87.052 E25.27594 F1800.000
G1 X89.186 Y86.767 E25.30562
G1 X91.263 Y85.312 E25.47505
G1 X91.648 Y85.090 E25.50473
G1 X93.947 Y84.018 E25.67416
G1 X94.364 Y83.866 E25.70383
G1 X96.814 Y83.210 E25.87326
G1 X97.251 Y83.133 E25.90294
G1 X99.522 Y82.934 E26.05519
G1 X99.778 Y82.912 E26.07237
G1 X100.222 Y82.912 E26.10205
G1 X102.749 Y83.133 E26.27148 F1800.000
G1 X103.186 Y83.210 E26.30115
G1 X105.636 Y83.866 E26.47058
G1 X106.053 Y84.018 E26.50026
G1 X108.352 Y85.090 E26.66968
G1 X108.737 Y85.312 E26.69936
G1 X110.814 Y86.767 E26.86879
G1 X111.154 Y87.052 E26.89847
G1 X112.948 Y88.846 E27.06789
G1 X113.233 Y89.186 E27.09758
G1 X114.688 Y91.263 E27.26700
G1 X114.910 Y91.648 E27.29668
G1 X115.982 Y93.947 E27.46610
G1 X116.134 Y94.364 E27.49579
G1 X116.790 Y96.814 E27.66521
G1 X116.867 Y97.251 E27.69490
G1 X117.088 Y99.778 E27.86432
G1 X117.088 Y100.222 E27.89400
G1 X116.867 Y102.749 E28.06343
G1 X116.790 Y103.186 E28.09312
G1 X116.134 Y105.636 E28.26253
G1 X115.982 Y106.053 E28.29222
G1 X114.910 Y108.352 E28.46164
G1 X114.688 Y108.737 E28.49132
G1 X113.233 Y110.814 E28.66074
G1 X112.948 Y111.154 E28.69043
G1 X111.154 Y112.948 E28.85985
G1 X110.814 Y113.233 E28.88954
G1 X108.737 Y114.688 E29.05896
G1 X108.352 Y114.910 E29.08864
G1 X106.053 Y115.982 E29.25806
G1 X105.636 Y116.134 E29.28774
G1 X103.186 Y116.790 E29.45717
G1 X102.749 Y116.867 E29.48686
G1 X100.222 Y117.088 E29.65627
G1 X99.778 Y117.088 E29.68596
G1 X97.251 Y116.867 E29.85538
G1 X96.814 Y116.790 E29.88507
G1 X94.364 Y116.134 E30.05449
G1 X93.947 Y115.982 E30.08417
G1 X91.648 Y114.910 E30.25360
G1 X91.263 Y114.688 E30.28328
G1 X89.186 Y113.233 E30.45269
G1 X88.846 Y112.948 E30.48238
G1 X87.052 Y111.154 E30.65181
G1 X86.767 Y110.814 E30.68149
G1 X85.312 Y108.737 E30.85092
G1 X85.090 Y108.352 E30.88060
G1 X84.018 Y106.053 E31.05003
G1 X83.866 Y105.636 E31.07970
G1 X83.210 Y103.186 E31.24913
G1 X83.133 Y102.749 E31.27880
G1 X82.912 Y100.222 E31.44823
G1 X82.912 Y99.778 E31.47791
G1 X83.133 Y97.251 E31.64735
G1 X83.210 Y96.814 E31.67702
G1 X83.866 Y94.364 E31.84645
G1 X84.018 Y93.947 E31.87613
G1 X85.090 Y91.648 E32.04554
G1 X85.312 Y91.263 E32.07523
G1 X86.767 Y89.186 E32.24465
G1 X87.052 Y88.846 E32.27434
G1 X87.917 Y87.981 E32.35604
G1 X88.328 Y88.328 F7800.000
G1 X89.208 Y87.448 E32.43919 F1800.000
G1 X89.512 Y87.192 E32.46575
G1 X91.552 Y85.764 E32.63206
G1 X91.896 Y85.565 E32.65861
G1 X94.152 Y84.513 E32.82491
G1 X94.525 Y84.377 E32.85147
G1 X96.930 Y83.733 E33.01777
G1 X97.321 Y83.664 E33.04433
G1 X99.801 Y83.447 E33.21063
G1 X100.199 Y83.447 E33.23718 F1800.000
G1 X102.679 Y83.664 E33.40349
G1 X103.070 Y83.733 E33.43004
G1 X105.475 Y84.378 E33.59634
G1 X105.848 Y84.513 E33.62290
G1 X108.104 Y85.565 E33.78919
G1 X108.449 Y85.764 E33.81575
G1 X110.488 Y87.192 E33.98205
G1 X110.792 Y87.448 E34.00861
G1 X112.552 Y89.208 E34.17490
G1 X112.808 Y89.512 E34.20147
G1 X114.236 Y91.551 E34.36777
G1 X114.434 Y91.896 E34.39432
G1 X115.487 Y94.152 E34.56062
G1 X115.622 Y94.525 E34.58718
G1 X116.267 Y96.930 E34.75347
G1 X116.336 Y97.321 E34.78004
G1 X116.553 Y99.801 E34.94634
G1 X116.553 Y100.199 E34.97290
G1 X116.336 Y102.679 E35.13920
G1 X116.267 Y103.070 E35.16576
G1 X115.622 Y105.475 E35.33205
G1 X115.486 Y105.848 E35.35862
G1 X114.435 Y108.104 E35.52491
G1 X114.236 Y108.448 E35.55146
G1 X112.808 Y110.488 E35.71777
G1 X112.552 Y110.792 E35.74432
G1 X110.792 Y112.552 E35.91062
G1 X110.488 Y112.808 E35.93718
G1 X108.449 Y114.236 E36.10348
G1 X108.104 Y114.434 E36.13004
G1 X105.848 Y115.486 E36.29633
G1 X105.475 Y115.622 E36.32289
G1 X103.070 Y116.267 E36.48920
G1 X102.679 Y116.336 E36.51576
G1 X100.199 Y116.553 E36.68205
G1 X99.801 Y116.553 E36.70861
G1 X97.321 Y116.336 E36.87491
G1 X96.930 Y116.267 E36.90147
G1 X94.525 Y115.622 E37.06777
G1 X94.152 Y115.487 E37.09432
G1 X91.896 Y114.434 E37.26063
G1 X91.551 Y114.236 E37.28718
G1 X89.512 Y112.808 E37.45347
G1 X89.208 Y112.552 E37.48004
G1 X87.448 Y110.792 E37.64634
G1 X87.192 Y110.488 E37.67290
G1 X85.764 Y108.448 E37.83920
G1 X85.565 Y108.104 E37.86575
G1 X84.513 Y105.848 E38.03206
G1 X84.377 Y105.475 E38.05861
G1 X83.733 Y103.070 E38.22491
G1 X83.664 Y102.679 E38.25146
G1 X83.447 Y100.199 E38.41777
G1 X83.447 Y99.801 E38.44432
G1 X83.664 Y97.321 E38.61063
G1 X83.733 Y96.930 E38.63718
G1 X84.378 Y94.525 E38.80349
G1 X84.513 Y94.152 E38.83004
G1 X85.565 Y91.896 E38.99633
G1 X85.764 Y91.551 E39.02289
G1 X87.192 Y89.512 E39.18919
G1 X87.448 Y89.208 E39.21575
G1 X88.296 Y88.360 E39.29589
G1 X88.706 Y88.706 F7800.000
G1 X89.570 Y87.843 E39.37748 F1800.000
G1 X89.839 Y87.617 E39.40092
G1 X91.840 Y86.216 E39.56409
G1 X92.143 Y86.041 E39.58753
G1 X94.357 Y85.009 E39.75070
G1 X94.687 Y84.889 E39.77414
G1 X97.046 Y84.257 E39.93731
G1 X97.391 Y84.196 E39.96074
G1 X99.615 Y84.001 E40.10987
G1 X100.175 Y83.983 E40.14732
G1 X102.609 Y84.196 E40.31050 F1800.000
G1 X102.954 Y84.257 E40.33393
G1 X105.313 Y84.889 E40.49710
G1 X105.643 Y85.009 E40.52053
G1 X107.857 Y86.041 E40.68371
G1 X108.160 Y86.216 E40.70714
G1 X110.161 Y87.617 E40.87031
G1 X110.430 Y87.843 E40.89375
G1 X112.157 Y89.570 E41.05692
G1 X112.383 Y89.839 E41.08036
G1 X113.784 Y91.840 E41.24353
G1 X113.959 Y92.143 E41.26696
G1 X114.991 Y94.357 E41.43013
G1 X115.111 Y94.687 E41.45357
G1 X115.743 Y97.046 E41.61674
G1 X115.804 Y97.391 E41.64018
G1 X116.017 Y99.825 E41.80335
G1 X116.017 Y100.175 E41.82679
G1 X115.804 Y102.609 E41.98996
G1 X115.743 Y102.954 E42.01340
G1 X115.111 Y105.313 E42.17657
G1 X114.991 Y105.643 E42.20001
G1 X113.959 Y107.857 E42.36318
G1 X113.784 Y108.160 E42.38661
G1 X112.383 Y110.161 E42.54979
G1 X112.157 Y110.430 E42.57322
G1 X110.430 Y112.157 E42.73639
G1 X110.161 Y112.383 E42.75983
G1 X108.160 Y113.784 E42.92300
G1 X107.857 Y113.959 E42.94644
G1 X105.643 Y114.991 E43.10960
G1 X105.313 Y115.111 E43.13304
G1 X102.954 Y115.743 E43.29622
G1 X102.609 Y115.804 E43.31965
G1 X100.175 Y116.017 E43.48283
G1 X99.825 Y116.017 E43.50626
G1 X97.391 Y115.804 E43.66943
G1 X97.046 Y115.743 E43.69287
G1 X94.687 Y115.111 E43.85604
G1 X94.357 Y114.991 E43.87948
G1 X92.143 Y113.959 E44.04265
G1 X91.840 Y113.784 E44.06608
G1 X89.839 Y112.383 E44.22925
G1 X89.570 Y112.157 E44.25269
G1 X87.843 Y110.430 E44.41587
G1 X87.617 Y110.161 E44.43930
G1 X86.216 Y108.160 E44.60248
G1 X86.041 Y107.857 E44.62591
G1 X85.009 Y105.643 E44.78909
G1 X84.889 Y105.313 E44.81252
G1 X84.257 Y102.954 E44.97569
G1 X84.196 Y102.609 E44.99912
G1 X83.983 Y100.175 E45.16230
G1 X83.983 Y99.825 E45.18573
G1 X84.196 Y97.391 E45.34891
G1 X84.257 Y97.046 E45.37234
G1 X84.889 Y94.687 E45.53552
G1 X85.009 Y94.357 E45.55895
G1 X86.041 Y92.143 E45.72212
G1 X86.216 Y91.840 E45.74555
G1 X87.617 Y89.839 E45.90873
G1 X87.843 Y89.570 E45.93216
G1 X88.675 Y88.738 E46.01074
G1 X89.085 Y89.085 F7800.000
G1 X89.932 Y88.238 E46.09077 F1800.000
G1 X90.165 Y88.043 E46.11108
G1 X92.128 Y86.669 E46.27113
G1 X92.391 Y86.517 E46.29144
G1 X94.562 Y85.504 E46.45149
G1 X94.848 Y85.400 E46.47180
G1 X97.162 Y84.780 E46.63185
G1 X97.461 Y84.727 E46.65216
G1 X99.848 Y84.518 E46.81221
G1 X100.152 Y84.518 E46.83252 F1800.000
G1 X102.539 Y84.727 E46.99257
G1 X102.838 Y84.780 E47.01288
G1 X105.152 Y85.400 E47.17293
G1 X105.438 Y85.504 E47.19323
G1 X107.609 Y86.517 E47.35328
G1 X107.872 Y86.669 E47.37359
G1 X109.835 Y88.043 E47.53364
G1 X110.068 Y88.238 E47.55395
G1 X111.762 Y89.932 E47.71400
G1 X111.957 Y90.165 E47.73431
G1 X113.331 Y92.128 E47.89436
G1 X113.483 Y92.391 E47.91467
G1 X114.496 Y94.562 E48.07471
G1 X114.600 Y94.848 E48.09503
G1 X115.220 Y97.162 E48.25507
G1 X115.273 Y97.461 E48.27539
G1 X115.482 Y99.848 E48.43543
G1 X115.482 Y100.152 E48.45575
G1 X115.273 Y102.539 E48.61579
G1 X115.220 Y102.838 E48.63611
G1 X114.600 Y105.152 E48.79615
G1 X114.496 Y105.438 E48.81647
G1 X113.483 Y107.609 E48.97651
G1 X113.331 Y107.872 E48.99682
G1 X111.957 Y109.835 E49.15687
G1 X111.762 Y110.068 E49.17718
G1 X110.068 Y111.762 E49.33723
G1 X109.835 Y111.957 E49.35754
G1 X107.872 Y113.331 E49.51759
G1 X107.609 Y113.483 E49.53790
G1 X105.438 Y114.496 E49.69794
G1 X105.152 Y114.600 E49.71825
G1 X102.838 Y115.220 E49.87831
G1 X102.539 Y115.273 E49.89862
G1 X100.152 Y115.482 E50.05866
G1 X99.848 Y115.482 E50.07897
G1 X97.461 Y115.273 E50.23902
G1 X97.162 Y115.220 E50.25934
G1 X94.848 Y114.600 E50.41938
G1 X94.562 Y114.496 E50.43969
G1 X92.391 Y113.483 E50.59974
G1 X92.128 Y113.331 E50.62005
G1 X90.165 Y111.957 E50.78009
G1 X89.932 Y111.762 E50.80041
G1 X88.238 Y110.068 E50.96046
G1 X88.043 Y109.835 E50.98077
G1 X86.669 Y107.872 E51.14082
G1 X86.517 Y107.609 E51.16113
G1 X85.504 Y105.438 E51.32118
G1 X85.400 Y105.152 E51.34149
G1 X84.780 Y102.838 E51.50154
G1 X84.727 Y102.539 E51.52184
G1 X84.518 Y100.152 E51.68189
G1 X84.518 Y99.848 E51.70220
