; generated by Slic3r 1.2.9 on 2018-12-13 at 13:12:04

; external perimeters extrusion width = 0.30mm
; perimeters extrusion width = 0.40mm
; infill extrusion width = 0.40mm
; solid infill extrusion width = 0.40mm
; top infill extrusion width = 0.40mm

M107
M190 S65 ; set bed temperature
M104 S205 ; set temperature
G28 ; home all axes
G1 Z5 F5000 ; lift nozzle

M109 S205 ; wait for temperature to be reached
G21 ; set units to millimeters
G90 ; use absolute coordinates
M82 ; use absolute distances for extrusion
G92 E0
G1 Z0.300 F7800.000
G1 E-2.00000 F2400.00000
G92 E0
G1 X83.012 Y84.425 F7800.000
G1 E2.00000 F2400.00000
G1 X84.793 Y82.748 E2.16348 F1800.000
G1 X87.019 Y81.729 E2.32696
G1 X89.000 Y81.464 E2.46050
G1 X111.000 Y81.464 E3.93022
G1 X113.415 Y81.862 E4.09370
G1 X115.575 Y83.012 E4.25719 F1800.000
G1 X117.252 Y84.793 E4.42067
G1 X118.270 Y87.019 E4.58415
G1 X118.536 Y89.000 E4.71769
G1 X118.536 Y111.000 E6.18741
G1 X118.138 Y113.415 E6.35089
G1 X116.988 Y115.575 E6.51437
G1 X115.207 Y117.252 E6.67786
G1 X112.981 Y118.270 E6.84134
G1 X111.000 Y118.536 E6.97488
G1 X89.000 Y118.536 E8.44460
G1 X86.585 Y118.138 E8.60808
G1 X84.425 Y116.988 E8.77156
G1 X82.748 Y115.207 E8.93504
G1 X81.730 Y112.981 E9.09852
G1 X81.464 Y111.000 E9.23206
G1 X81.464 Y89.000 E10.70178
G1 X81.862 Y86.585 E10.86527
G1 X82.991 Y84.465 E11.02574
G1 X83.938 Y85.351 F7800.000
G1 X86.449 Y82.840 E11.26296 F1800.000
G1 X113.551 Y82.840 E13.07357
G1 X117.160 Y86.449 E13.41447
G1 X117.160 Y113.551 E15.22508 F1800.000
G1 X113.551 Y117.160 E15.56597
G1 X86.449 Y117.160 E17.37659
G1 X82.840 Y113.551 E17.71748
G1 X82.840 Y86.449 E19.52809
G1 X83.906 Y85.383 E19.62877
G1 X84.317 Y85.730 F7800.000
G1 X86.670 Y83.376 E19.85116 F1800.000
G1 X113.330 Y83.376 E21.63213
G1 X116.624 Y86.670 E21.94338 F1800.000
G1 X116.624 Y113.330 E23.72435
G1 X113.330 Y116.624 E24.03560
G1 X86.670 Y116.624 E25.81657
G1 X83.376 Y113.330 E26.12783
G1 X83.376 Y86.670 E27.90880
G1 X84.285 Y85.762 E27.99465
G1 X84.695 Y86.109 F7800.000
G1 X86.892 Y83.912 E28.20222 F1800.000
G1 X113.108 Y83.912 E29.95355
G1 X116.088 Y86.892 E30.23516
G1 X116.088 Y113.108 E31.98648 F1800.000
G1 X113.108 Y116.088 E32.26809
G1 X86.892 Y116.088 E34.01942
G1 X83.912 Y113.108 E34.30103
G1 X83.912 Y86.892 E36.05235
G1 X84.663 Y86.141 E36.12338
G1 X85.074 Y86.487 F7800.000
G1 X87.114 Y84.447 E36.31613 F1800.000
G1 X112.886 Y84.447 E38.03782
G1 X115.553 Y87.114 E38.28978 F1800.000
G1 X115.553 Y112.886 E40.01147
G1 X112.886 Y115.553 E40.26343
G1 X87.114 Y115.553 E41.98512
G1 X84.447 Y112.886 E42.23708
G1 X84.447 Y87.114 E43.95877
G1 X85.042 Y86.519 E44.01498
G1 X85.453 Y86.866 F7800.000
G1 X87.336 Y84.983 E44.19291 F1800.000
G1 X112.664 Y84.983 E45.88495
G1 X115.017 Y87.336 E46.10727
G1 X115.017 Y112.664 E47.79931 F1800.000
G1 X112.664 Y115.017 E48.02163
G1 X87.336 Y115.017 E49.71367
G1 X84.983 Y112.664 E49.93600
G1 X84.983 Y87.336 E51.62804
G1 X85.421 Y86.898 E51.66942
G1 X85.831 Y87.245 F7800.000
G1 X87.558 Y85.518 E51.83253 F1800.000
G1 X112.442 Y85.518 E53.49493
G1 X114.482 Y87.558 E53.68761 F1800.000
G1 X114.482 Y112.442 E55.35001
G1 X112.442 Y114.482 E55.54269
G1 X87.558 Y114.482 E57.20509
G1 X85.518 Y112.442 E57.39777
G1 X85.518 Y87.558 E59.06017
G1 X85.800 Y87.277 E59.08673
G1 X86.210 Y87.624 F7800.000
G1 X87.780 Y86.054 E59.23502 F1800.000
G1 X112.220 Y86.054 E60.86777
G1 X113.946 Y87.780 E61.03081
G1 X113.946 Y112.220 E62.66356 F1800.000
G1 X112.220 Y113.946 E62.82660
G1 X87.780 Y113.946 E64.45936
G1 X86.054 Y112.220 E64.62239
G1 X86.054 Y87.780 E66.25515
G1 X86.178 Y87.655 E66.26689
G1 X86.590 Y88.002 F7800.000
G1 X88.002 Y86.590 E66.40028 F1800.000
G1 X111.998 Y86.590 E68.00340
G1 X113.410 Y88.002 E68.13679 F1800.000
G1 X113.410 Y111.998 E69.73990
G1 X111.998 Y113.410 E69.87330
G1 X88.002 Y113.410 E71.47641
G1 X86.590 Y111.998 E71.60980
G1 X86.590 Y88.047 E73.20991
G1 X87.125 Y88.223 F7800.000
G1 X88.223 Y87.125 E73.31366 F1800.000
G1 X111.777 Y87.125 E74.88713
G1 X112.875 Y88.223 E74.99088
G1 X112.875 Y111.777 E76.56435 F1800.000
G1 X111.777 Y112.875 E76.66810
G1 X88.223 Y112.875 E78.24157
G1 X87.125 Y111.777 E78.34532
G1 X87.125 Y88.268 E79.91578
G1 X87.661 Y88.445 F7800.000
G1 X88.445 Y87.661 E79.98989 F1800.000
G1 X111.555 Y87.661 E81.53371
G1 X112.339 Y88.445 E81.60782 F1800.000
G1 X112.339 Y111.555 E83.15165
G1 X111.555 Y112.339 E83.22576
G1 X88.445 Y112.339 E84.76958
G1 X87.661 Y111.555 E84.84369
G1 X87.661 Y88.490 E86.38451
G1 X88.197 Y88.667 F7800.000
G1 X88.667 Y88.197 E86.42897 F1800.000
G1 X111.333 Y88.197 E87.94316
G1 X111.803 Y88.667 E87.98762
G1 X111.803 Y111.333 E89.50181 F1800.000
G1 X111.333 Y111.803 E89.54627
G1 X88.667 Y111.803 E91.06045
G1 X88.197 Y111.333 E91.10492
G1 X88.197 Y88.712 E92.61610
G1 X88.732 Y88.889 F7800.000
G1 X88.889 Y88.732 E92.63092 F1800.000
G1 X111.111 Y88.732 E94.11546
G1 X111.268 Y88.889 E94.13028 F1800.000
G1 X111.268 Y111.111 E95.61482
G1 X111.111 Y111.268 E95.62964
G1 X88.889 Y111.268 E97.11418
G1 X88.732 Y111.111 E97.12900
G1 X88.732 Y88.934 E98.61054
G1 E96.61054 F2400.00000
G92 E0
G1 X110.700 Y110.700 F7800.000
G1 E2.00000 F2400.00000
G1 X89.300 Y110.700 E3.42964 F1800.000
G1 X89.300 Y89.300 E4.85927
G1 X110.700 Y89.300 E6.28891
G1 X110.700 Y110.655 E7.71554
G1 X110.440 Y110.550 F7800.000
G1 X110.164 Y110.164 F7800.000
G1 X89.836 Y110.164 E9.07361 F1800.000
G1 X89.836 Y89.836 E10.43168
G1 X110.164 Y89.836 E11.78975
G1 X110.164 Y110.119 E13.14482
G1 X109.629 Y109.629 F7800.000
G1 X90.371 Y109.629 E14.43132 F1800.000
G1 X90.371 Y90.371 E15.71783
G1 X109.629 Y90.371 E17.00434
G1 X109.629 Y109.584 E18.28784
G1 X109.307 Y90.960 F7800.000
G1 X109.040 Y90.693 E18.31332 F1800.000
G1 X108.275 Y90.693 E18.36486
G1 X109.307 Y91.725 E18.46323
G1 X109.307 Y92.489 E18.51477
G1 X107.511 Y90.693 E18.68603
G1 X106.747 Y90.693 E18.73757
G1 X109.307 Y93.253 E18.98172
G1 X109.307 Y94.018 E19.03326
G1 X105.982 Y90.693 E19.35030
G1 X105.218 Y90.693 E19.40184
G1 X109.307 Y94.782 E19.79177
G1 X109.307 Y95.547 E19.84331
G1 X104.453 Y90.693 E20.30612
G1 X103.689 Y90.693 E20.35767
G1 X109.307 Y96.311 E20.89337
G1 X109.307 Y97.076 E20.94491
G1 X102.924 Y90.693 E21.55351
G1 X102.160 Y90.693 E21.60505
G1 X109.307 Y97.840 E22.28654
G1 X109.307 Y98.605 E22.33808
G1 X101.395 Y90.693 E23.09245
G1 X100.631 Y90.693 E23.14399
G1 X109.307 Y99.369 E23.97126
G1 X109.307 Y100.134 E24.02280
G1 X99.866 Y90.693 E24.92295
G1 X99.102 Y90.693 E24.97449
G1 X109.307 Y100.898 E25.94753
G1 X109.307 Y101.663 E25.99907
G1 X98.337 Y90.693 E27.04501
G1 X97.573 Y90.693 E27.09655
G1 X109.307 Y102.427 E28.21537
G1 X109.307 Y103.191 E28.26691
G1 X96.809 Y90.693 E29.45862
G1 X96.044 Y90.693 E29.51016
G1 X109.307 Y103.956 E30.77476
G1 X109.307 Y104.720 E30.82630
G1 X95.280 Y90.693 E32.16379
G1 X94.515 Y90.693 E32.21533
G1 X109.307 Y105.485 E33.62571
G1 X109.307 Y106.249 E33.67725
G1 X93.751 Y90.693 E35.16052
G1 X92.986 Y90.693 E35.21206
G1 X109.307 Y107.014 E36.76822
G1 X109.307 Y107.778 E36.81976
G1 X92.222 Y90.693 E38.44881
G1 X91.457 Y90.693 E38.50035
G1 X109.307 Y108.543 E40.20229
G1 X109.287 Y109.287 E40.25250
G1 X90.713 Y90.713 E42.02351
G1 X90.693 Y91.457 E42.07372
G1 X108.543 Y109.307 E43.77565
G1 X107.778 Y109.307 E43.82719
G1 X90.693 Y92.222 E45.45624
G1 X90.693 Y92.986 E45.50778
G1 X107.014 Y109.307 E47.06393
G1 X106.249 Y109.307 E47.11547
G1 X90.693 Y93.751 E48.59874
G1 X90.693 Y94.515 E48.65028
G1 X105.485 Y109.307 E50.06065
G1 X104.720 Y109.307 E50.11220
G1 X90.693 Y95.280 E51.44968
G1 X90.693 Y96.044 E51.50122
G1 X103.956 Y109.307 E52.76582
G1 X103.191 Y109.307 E52.81736
G1 X90.693 Y96.809 E54.00907
G1 X90.693 Y97.573 E54.06061
G1 X102.427 Y109.307 E55.17943
G1 X101.663 Y109.307 E55.23097
G1 X90.693 Y98.337 E56.27690
G1 X90.693 Y99.102 E56.32844
G1 X100.898 Y109.307 E57.30148
G1 X100.134 Y109.307 E57.35302
G1 X90.693 Y99.866 E58.25317
G1 X90.693 Y100.631 E58.30471
G1 X99.369 Y109.307 E59.13197
G1 X98.605 Y109.307 E59.18351
G1 X90.693 Y101.395 E59.93788
G1 X90.693 Y102.160 E59.98942
G1 X97.840 Y109.307 E60.67091
G1 X97.076 Y109.307 E60.72245
G1 X90.693 Y102.924 E61.33104
G1 X90.693 Y103.689 E61.38258
G1 X96.311 Y109.307 E61.91828
G1 X95.547 Y109.307 E61.96982
G1 X90.693 Y104.453 E62.43264
G1 X90.693 Y105.218 E62.48418
G1 X94.782 Y109.307 E62.87410
G1 X94.018 Y109.307 E62.92564
G1 X90.693 Y105.982 E63.24268
G1 X90.693 Y106.747 E63.29422
G1 X93.253 Y109.307 E63.53837
G1 X92.489 Y109.307 E63.58991
G1 X90.693 Y107.511 E63.76116
G1 X90.693 Y108.275 E63.81270
G1 X91.725 Y109.307 E63.91107
G1 X90.960 Y109.307 E63.96261
G1 X90.693 Y109.040 E63.98809
M104 S200 ; set temperature
M140 S60 ; wait for bed temperature to be reached
G1 Z0.500 F7800.000
G1 X110.191 Y110.191 F7800.000
G1 X89.809 Y110.191 E64.58709 F3600.000
G1 X89.809 Y89.809 E65.18609
G1 X110.191 Y89.809 E65.78509
G1 X110.191 Y110.146 E66.38277
G1 X110.545 Y110.545 F7800.000
G1 X89.455 Y110.545 E67.00254 F3600.000
G1 X89.455 Y89.455 E67.62231
G1 X110.545 Y89.455 E68.24209
G1 X110.545 Y110.500 E68.86054
G1 X110.850 Y110.850 F7800.000
G1 X89.150 Y110.850 E69.32440 F1800.000
G1 X89.150 Y89.150 E69.78827
G1 X110.850 Y89.150 E70.25213
G1 X110.850 Y110.805 E70.71503
G1 X110.590 Y110.700 F7800.000
G1 X109.796 Y109.986 F7800.000
G1 X109.986 Y109.796 E70.72294 F1200.000
G1 X109.986 Y109.295 E70.73769
G1 X109.295 Y109.986 E70.76645
G1 X108.794 Y109.986 E70.78120
G1 X109.986 Y108.794 E70.83082
G1 X109.986 Y108.294 E70.84557
G1 X108.294 Y109.986 E70.91604
G1 X107.793 Y109.986 E70.93079
G1 X109.986 Y107.793 E71.02212
G1 X109.986 Y107.292 E71.03686
G1 X107.292 Y109.986 E71.14905
G1 X106.791 Y109.986 E71.16379
G1 X109.986 Y106.791 E71.29683
G1 X109.986 Y106.290 E71.31158
G1 X106.290 Y109.986 E71.46547
G1 X105.789 Y109.986 E71.48022
G1 X109.986 Y105.789 E71.65496
G1 X109.986 Y105.289 E71.66971
G1 X105.289 Y109.986 E71.86531
G1 X104.788 Y109.986 E71.88006
G1 X109.986 Y104.788 E72.09651
G1 X109.986 Y104.287 E72.11126
G1 X104.287 Y109.986 E72.34857
G1 X103.786 Y109.986 E72.36332
G1 X109.986 Y103.786 E72.62149
G1 X109.986 Y103.285 E72.63623
G1 X103.285 Y109.986 E72.91525
G1 X102.785 Y109.986 E72.93000
G1 X109.986 Y102.785 E73.22987
G1 X109.986 Y102.284 E73.24462
G1 X102.284 Y109.986 E73.56535
G1 X101.783 Y109.986 E73.58010
G1 X109.986 Y101.783 E73.92168
G1 X109.986 Y101.282 E73.93643
G1 X101.282 Y109.986 E74.29887
G1 X100.781 Y109.986 E74.31362
G1 X109.986 Y100.781 E74.69691
G1 X109.986 Y100.281 E74.71166
G1 X100.281 Y109.986 E75.11581
G1 X99.780 Y109.986 E75.13055
G1 X109.986 Y99.780 E75.55556
G1 X109.986 Y99.279 E75.57030
G1 X99.279 Y109.986 E76.01616
G1 X98.778 Y109.986 E76.03091
G1 X109.986 Y98.778 E76.49762
G1 X109.986 Y98.277 E76.51237
G1 X98.277 Y109.986 E76.99993
G1 X97.777 Y109.986 E77.01468
G1 X109.986 Y97.777 E77.52310
G1 X109.986 Y97.276 E77.53785
G1 X97.276 Y109.986 E78.06713
G1 X96.775 Y109.986 E78.08187
G1 X109.986 Y96.775 E78.63201
G1 X109.978 Y96.282 E78.64651
G1 X96.274 Y109.986 E79.21715
G1 X95.773 Y109.986 E79.23190
G1 X109.986 Y95.773 E79.82374
G1 X109.986 Y95.273 E79.83849
G1 X95.273 Y109.986 E80.45119
G1 X94.772 Y109.986 E80.46593
G1 X109.986 Y94.772 E81.09948
G1 X109.986 Y94.271 E81.11423
G1 X94.271 Y109.986 E81.76863
G1 X93.770 Y109.986 E81.78338
G1 X109.986 Y93.770 E82.45864
G1 X109.986 Y93.269 E82.47339
G1 X93.269 Y109.986 E83.16950
G1 X92.769 Y109.986 E83.18425
G1 X109.986 Y92.769 E83.90122
G1 X109.986 Y92.268 E83.91596
G1 X92.268 Y109.986 E84.65379
G1 X91.767 Y109.986 E84.66853
G1 X109.986 Y91.767 E85.42721
G1 X109.986 Y91.266 E85.44196
G1 X91.266 Y109.986 E86.22149
G1 X90.765 Y109.986 E86.23624
G1 X109.986 Y90.765 E87.03663
G1 X109.986 Y90.264 E87.05137
G1 X90.264 Y109.986 E87.87262
G1 X90.014 Y109.735 E87.88305
G1 X109.735 Y90.014 E88.70429
G1 X109.235 Y90.014 E88.71903
G1 X90.014 Y109.235 E89.51942
G1 X90.014 Y108.734 E89.53417
G1 X108.734 Y90.014 E90.31370
G1 X108.233 Y90.014 E90.32845
G1 X90.014 Y108.233 E91.08713
G1 X90.014 Y107.732 E91.10187
G1 X107.732 Y90.014 E91.83970
G1 X107.231 Y90.014 E91.85444
G1 X90.014 Y107.231 E92.57141
G1 X90.014 Y106.731 E92.58616
G1 X106.731 Y90.014 E93.28227
G1 X106.230 Y90.014 E93.29702
G1 X90.014 Y106.230 E93.97228
G1 X90.014 Y105.729 E93.98702
G1 X105.729 Y90.014 E94.64143
G1 X105.228 Y90.014 E94.65617
G1 X90.014 Y105.228 E95.28972
G1 X90.014 Y104.727 E95.30447
G1 X104.727 Y90.014 E95.91717
G1 X104.227 Y90.014 E95.93191
G1 X90.014 Y104.227 E96.52375
G1 X90.033 Y103.707 E96.53907
G1 X103.708 Y90.032 E97.10854
G1 X103.225 Y90.014 E97.12278
G1 X90.014 Y103.225 E97.67291
G1 X90.014 Y102.724 E97.68766
G1 X102.724 Y90.014 E98.21693
G1 X102.223 Y90.014 E98.23168
G1 X90.014 Y102.223 E98.74010
G1 X90.014 Y101.723 E98.75485
G1 X101.723 Y90.014 E99.24241
G1 X101.222 Y90.014 E99.25716
G1 X90.014 Y101.222 E99.72387
G1 X90.014 Y100.721 E99.73862
G1 X100.721 Y90.014 E100.18448
G1 X100.220 Y90.014 E100.19922
G1 X90.014 Y100.220 E100.62423
G1 X90.014 Y99.719 E100.63897
G1 X99.719 Y90.014 E101.04312
G1 X99.219 Y90.014 E101.05787
G1 X90.014 Y99.219 E101.44116
G1 X90.014 Y98.718 E101.45591
G1 X98.718 Y90.014 E101.81835
G1 X98.217 Y90.014 E101.83309
G1 X90.014 Y98.217 E102.17468
G1 X90.014 Y97.716 E102.18942
G1 X97.716 Y90.014 E102.51015
G1 X97.215 Y90.014 E102.52490
G1 X90.014 Y97.215 E102.82477
G1 X90.014 Y96.715 E102.83952
G1 X96.715 Y90.014 E103.11854
G1 X96.209 Y90.019 E103.13343
G1 X90.034 Y96.194 E103.39058
G1 X90.014 Y95.713 E103.40476
G1 X95.713 Y90.014 E103.64207
G1 X95.212 Y90.014 E103.65682
G1 X90.014 Y95.212 E103.87327
G1 X90.014 Y94.711 E103.88802
G1 X94.711 Y90.014 E104.08362
G1 X94.210 Y90.014 E104.09837
G1 X90.014 Y94.210 E104.27311
G1 X90.014 Y93.710 E104.28786
G1 X93.710 Y90.014 E104.44175
G1 X93.209 Y90.014 E104.45650
G1 X90.014 Y93.209 E104.58954
G1 X90.014 Y92.708 E104.60428
G1 X92.708 Y90.014 E104.71647
G1 X92.207 Y90.014 E104.73121
G1 X90.014 Y92.207 E104.82254
G1 X90.014 Y91.706 E104.83729
G1 X91.706 Y90.014 E104.90776
G1 X91.206 Y90.014 E104.92251
G1 X90.014 Y91.206 E104.97212
G1 X90.014 Y90.705 E104.98687
G1 X90.705 Y90.014 E105.01563
G1 X90.204 Y90.014 E105.03038
G1 X90.014 Y90.204 E105.03829
G1 Z0.700 F7800.000
G1 E103.03829 F2400.00000
G92 E0
G1 X106.090 Y105.982 F7800.000
G1 E2.00000 F2400.00000
G1 X104.821 Y107.045 E2.04862 F3600.000
G1 X103.372 Y107.842 E2.09725
G1 X101.796 Y108.346 E2.14587
G1 X100.152 Y108.535 E2.19450
G1 X98.502 Y108.404 E2.24312
G1 X96.909 Y107.957 E2.29174
G1 X95.432 Y107.212 E2.34037
G1 X94.127 Y106.195 E2.38899
G1 X93.042 Y104.946 E2.43762
G1 X92.219 Y103.511 E2.48624
G1 X91.688 Y101.944 E2.53486
G1 X91.469 Y100.304 E2.58349
G1 X91.571 Y98.652 E2.63211
G1 X91.988 Y97.055 E2.68064
G1 X92.625 Y95.705 E2.72449
G1 X92.917 Y95.242 E2.74059
G1 X93.219 Y94.820 E2.75585
G1 X93.510 Y94.460 E2.76944
G1 X93.991 Y93.941 E2.79024
G1 X94.329 Y93.624 E2.80386
G1 X94.924 Y93.141 E2.82638
G1 X95.411 Y92.805 E2.84377
G1 X97.034 Y91.995 E2.89706
G1 X98.625 Y91.575 E2.94542
G1 X99.601 Y91.511 E2.97418
G1 X100.262 Y91.468 E2.99364 F3600.000
G1 X101.890 Y91.675 E3.04186
G1 X103.448 Y92.191 E3.09008
G1 X104.878 Y92.995 E3.13830
G1 X106.128 Y94.057 E3.18652
G1 X107.152 Y95.339 E3.23474
G1 X107.912 Y96.794 E3.28296
G1 X108.379 Y98.367 E3.33118
G1 X108.537 Y100.000 E3.37941
G1 X108.376 Y101.647 E3.42803
G1 X107.901 Y103.232 E3.47665
G1 X107.129 Y104.695 E3.52528
G1 X106.118 Y105.947 E3.57258
G1 X105.836 Y105.733 F7800.000
G1 X104.621 Y106.752 E3.61918 F3600.000
G1 X103.231 Y107.516 E3.66578
G1 X101.721 Y107.998 E3.71238
G1 X100.146 Y108.180 E3.75898
G1 X98.565 Y108.055 E3.80559
G1 X97.038 Y107.626 E3.85219
G1 X95.622 Y106.912 E3.89879
G1 X94.371 Y105.937 E3.94539
G1 X93.332 Y104.740 E3.99199
G1 X92.542 Y103.365 E4.03859
G1 X92.033 Y101.863 E4.08519
G1 X91.824 Y100.291 E4.13180
G1 X91.921 Y98.708 E4.17840
G1 X92.322 Y97.176 E4.22494
G1 X92.936 Y95.875 E4.26721
G1 X93.210 Y95.439 E4.28236
G1 X93.501 Y95.034 E4.29701
G1 X93.777 Y94.691 E4.30995
G1 X94.242 Y94.190 E4.33004
G1 X94.562 Y93.890 E4.34292
G1 X95.136 Y93.424 E4.36466
G1 X95.591 Y93.110 E4.38091
G1 X97.159 Y92.327 E4.43240
G1 X98.682 Y91.925 E4.47870
G1 X99.624 Y91.864 E4.50645
